P1
# GentleOS DMV Testbild 640x400 GDC
600 340
111111111111111111111111111111111111111111111111111111111111111111111111111111111111111111111111111111111111111111111111111111111111111111111111111111111111111111111111111111111111111111111111111111111111111111111111111111111111111111111111111111111111111111111111111111111111111111111111111111111111111111111111111111111111111111111111111111111111111111111111111111111111111111111111111111111111111111111111111111111111111111111111111111111111111111111111111111111111111111111111111111111111111111111111111111111111111111111111111111111111111111111111111111111111111111111111111111111111111111111111
101100000000000000000000000000000000000010000000000000000000000000000000000000001000000000000000000000000000000000000000100000000000000000000000000000000000000010000000000000000000000000000000000000001000000000000000000000000000000000000000100000000000000000000000000000000000000010000000000000000000100000000000000000001000000000000000000000000000000000000000100000000000000000000000000000000000000010000000000000000000000000000000000000001000000000000000000000000000000000000000100000000000000000000000000000000000000010000000000000000000000000000000000000001000000000000000000000000000000000000111
101111111111111111111111111111111111111111111111111111111111111111111111111111111111111111111111111111111111111111111111111111111111111111111111111111111111111111111111111111111111111111111111111111111111111111111111111111111111111111111111111111111111111111111111111111111111111111111111111111111111111111111111111111111111111111111111111111111111111111111111111111111111111111111111111111111111111111111111111111111111111111111111111111111111111111111111111111111111111111111111111111111111111111111111111111111111111111111111111111111111111111111111111111111111111111111111111111111111111111111101
101000110000000000000000000000000000000010000000000000000000000000000000000000001000000000000000000000000000000000000000100000000000000000000000000000000000000010000000000000000000000000000000000000001000000000000000000000000000000000000000100000000000000000000000000000000000000010000000000000000000100000000000000000001000000000000000000000000000000000000000100000000000000000000000000000000000000010000000000000000000000000000000000000001000000000000000000000000000000000000000100000000000000000000000000000000000000010000000000000000000000000000000000000001000000000000000000000000000000001100101
101000001000000010000000000000001000000010000000100000000000000010000000000000001000000000000000100000000000000010000000100000001000000000000000100000000000000010000000000000001000000000000000100000001000000010000000000000001000000000000000100000000000000010000000000000001000000010000000100000000000100010000000000000001000000000000000100000000000000010000000100000001000000000000000100000000000000010000000000000001000000000000000100000001000000010000000000000001000000000000000100000000000000010000000000000001000000010000000100000000000000010000000000000001000000000000000100000000000000010000101
101000000110000010000000000000001000000010000000100000000000000010000000000000001000000000000000100000000000000010000000100000001000000000000000100000000000000010000000000000001000000000000000100000001000000010000000000000001000000000000000100000000000000010000000000000001000000010000000100000000000100010000000000000001000000000000000100000000000000010000000100000001000000000000000100000000000000010000000000000001000000000000000100000001000000010000000000000001000000000000000100000000000000010000000000000001000000010000000100000000000000010000000000000001000000000000000100000000000001110000101
101000000001100010000000000000001000000010000000100000000000000010000000000000001000000000000000100000000000000010000000100000001000000000000000100000000000000010000000000000001000000000000000100000001000000010000000000000001000000000000000100000000000000010000000000000001000000010000000100000000000100010000000000000001000000000000000100000000000000010000000100000001000000000000000100000000000000010000000000000001000000000000000100000001000000010000000000000001000000000000000100000000000000010000000000000001000000010000000100000000000000010000000000000001000000000000000100000000000110010000101
101000000000011010000000000000001000000010000000100000000000000010000000000000001000000000000000100000000000000010000000100000001000000000000000100000000000000010000000000000001000000000000000100000001000000010000000000000001000000000000000100000000000000010000000000000001000000010000000100000000000100010000000000000001000000000000000100000000000000010000000100000001000000000000000100000000000000010000000000000001000000000000000100000001000000010000000000000001000000000000000100000000000000010000000000000001000000010000000100000000000000010000000000000001000000000000000100000000011000010000101
101000000000000110000000000000001000000010000000100000000000000010000000000000001000000000000000100000000000000010000000100000001000000000000000100000000000000010000000000000001000000000000000100000001000000010000000000000001000000000000000100000000000000010000000000000001000000010000000100000000000100010000000000000001000000000000000100000000000000010000000100000001000000000000000100000000000000010000000000000001000000000000000100000001000000010000000000000001000000000000000100000000000000010000000000000001000000010000000100000000000000010000000000000001000000000000000100000000100000010000101
101000000000000011000000000000001000000010000000100000000000000010000000000000001000000000000000100000000000000010000000100000001000000000000000100000000000000010000000000000001000000000000000100000001000000010000000000000001000000000000000100000000000000010000000000000001000000010000000100000000000100010000000000000001000000000000000100000000000000010000000100000001000000000000000100000000000000010000000000000001000000000000000100000001000000010000000000000001000000000000000100000000000000010000000000000001000000010000000100000000000000010000000000000001000000000000000100000011000000010000101
101000000000000010110000000000001000000010000000100000000000000010000000000000001000000000000000100000000000000010000000100000001000000000000000100000000000000010000000000000001000000000000000100000001000000010000000000000001000000000000000100000000000000010000000000000001000000010000000100000000000100010000000000000001000000000000000100000000000000010000000100000001000000000000000100000000000000010000000000000001000000000000000100000001000000010000000000000001000000000000000100000000000000010000000000000001000000010000000100000000000000010000000000000001000000000000000100001100000000010000101
101000000000000010001100000000001000000010000000100000000000000010000000000000001000000000000000100000000000000010000000100000001000000000000000100000000000000010000000000000001000000000000000100000001000000010000000000000001000000000000000100000000000000010000000000000001000000010000000100000000000100010000000000000001000000000000000100000000000000010000000100000001000000000000000100000000000000010000000000000001000000000000000100000001000000010000000000000001000000000000000100000000000000010000000000000001000000010000000100000000000000010000000000000001000000000000000100110000000000010000101
101000000000000000000010000000000000000010000000000000000000000000000000000000001000000000000000000000000000000000000000100000000000000000000000000000000000000010000000000000000000000000000000000000001000000000000000000000000000000000000000100000000000000000000000000000000000000010000000000000000000100000000000000000001000000000000000000000000000000000000000100000000000000000000000000000000000000010000000000000000000000000000000000000001000000000000000000000000000000000000000100000000000000000000000000000000000000010000000000000000000000000000000000000001000000000000000001000000000000000000101
101000000000000000000001100000000000000010000000000000000000000000000000000000001000000000000000000000000000000000000000100000000000000000000000000000000000000010000000000000000000000000000000000000001000000000000000000000000000000000000000100000000000000000000000000000000000000010000000000000000000100000000000000000001000000000000000000000000000000000000000100000000000000000000000000000000000000010000000000000000000000000000000000000001000000000000000000000000000000000000000100000000000000000000000000000000000000010000000000000000000000000000000000000001000000000000000110000000000000000000101
101000000000000000000000011000000000000010000000000000000000000000000000000000001000000000000000000000000000000000000000100000000000000000000000000000000000000010000000000000000000000000000000000000001000000000000000000000000000000000000000100000000000000000000000000000000000000010000000000000000000100000000000000000001000000000000000000000000000000000000000100000000000000000000000000000000000000010000000000000000000000000000000000000001000000000000000000000000000000000000000100000000000000000000000000000000000000010000000000000000000000000000000000000001000000000000011000000000000000000000101
101000000000000000000000000110000000000010000000000000000000000000000000000000001000000000000000000000000000000000000000100000000000000000000000000000000000000010000000000000000000000000000000000000001000000000000000000000000000000000000000100000000000000000000000000000000000000010000000000000000000100000000000000000001000000000000000000000000000000000000000100000000000000000000000000000000000000010000000000000000000000000000000000000001000000000000000000000000000000000000000100000000000000000000000000000000000000010000000000000000000000000000000000000001000000000001100000000000000000000000101
101000000000000000000000000001000000000010000000000000000000000000000000000000001000000000000000000000000000000000000000100000000000000000000000000000000000000010000000000000000000000000000000000000001000000000000000000000000000000000000000100000000000000000000000000000000000000010000000000000000000100000000000000000001000000000000000000000000000000000000000100000000000000000000000000000000000000010000000000000000000000000000000000000001000000000000000000000000000000000000000100000000000000000000000000000000000000010000000000000000000000000000000000000001000000000110000000000000000000000000101
101000000000000000000000000000110000000010000000000000000000000000000000000000001000000000000000000000000000000000000000100000000000000000000000000000000000000010000000000000000000000000000000000000001000000000000000000000000000000000000000100000000000000000000000000000000000000010000000000000000000100000000000000000001000000000000000000000000000000000000000100000000000000000000000000000000000000010000000000000000000000000000000000000001000000000000000000000000000000000000000100000000000000000000000000000000000000010000000000000000000000000000000000000001000000001000000000000000000000000000101
101000000000000000000000000000001100000010000000000000000000000000000000000000001000000000000000000000000000000000000000100000000000000000000000000000000000000010000000000000000000000000000000000000001000000000000000000000000000000000000000100000000000000000000000000000000000000010000000000000000000100000000000000000001000000000000000000000000000000000000000100000000000000000000000000000000000000010000000000000000000000000000000000000001000000000000000000000000000000000000000100000000000000000000000000000000000000010000000000000000000000000000000000000001000000110000000000000000000000000000101
101000000000000000000000000000000011000010000000000000000000000000000000000000001000000000000000000000000000000000000000100000000000000000000000000000000000000010000000000000000000000000000000000000001000000000000000000000000000000000000000100000000000000000000000000000000000000010000000000000000000100000000000000000001000000000000000000000000000000000000000100000000000000000000000000000000000000010000000000000000000000000000000000000001000000000000000000000000000000000000000100000000000000000000000000000000000000010000000000000000000000000000000000000001000011000000000000000000000000000000101
101000000000000000000000000000000000110010000000000000000000000000000000000000001000000000000000000000000000000000000000100000000000000000000000000000000000000010000000000000000000000000000000000000001000000000000000000000000000000000000000100000000000000000000000000000000000000010000000000000000000100000000000000000001000000000000000000000000000000000000000100000000000000000000000000000000000000010000000000000000000000000000000000000001000000000000000000000000000000000000000100000000000000000000000000000000000000010000000000000000000000000000000000000001001100000000000000000000000000000000101
101000000000000000000000000000000000001010000000000000000000000000000000000000001000000000000000000000000000000000000000100000000000000000000000000000000000000010000000000000000000000000000000000000001000000000000000000000000000000000000000100000000000000000000000000000000000000010000000000000000000100000000000000000001000000000000000000000000000000000000000100000000000000000000000000000000000000010000000000000000000000000000000000000001000000000000000000000000000000000000000100000000000000000000000000000000000000010000000000000000000000000000000000000001010000000000000000000000000000000000101
101000000000000000000000000000000000000110000000000000000000000000000000000000001000000000000000000000000000000000000000100000000000000000000000000000000000000010000000000000000000000000000000000000001000000000000000000000000000000000000000100000000000000000000000000000000000000010000000000000000000100000000000000000001000000000000000000000000000000000000000100000000000000000000000000000000000000010000000000000000000000000000000000000001000000000000000000000000000000000000000100000000000000000000000000000000000000010000000000000000000000000000000000000001100000000000000000000000000000000000101
101000000000000000000000000000000000000011100000000000000000000000000000000000001000000000000000000000000000000000000000100000000000000000000000000000000000000010000000000000000000000000000000000000001000000000000000000000000000000000000000100000000000000000000000000000000000000010000000000000000000100000000000000000001000000000000000000000000000000000000000100000000000000000000000000000000000000010000000000000000000000000000000000000001000000000000000000000000000000000000000100000000000000000000000000000000000000010000000000000000000000000000000000000111000000000000000000000000000000000000101
101000000000000000000000000000000000000010011000000000000000000000000000000000001000000000000000000000000000000000000000100000000000000000000000000000000000000010000000000000000000000000000000000000001000000000000000000000000000000000000000100000000000000000000000000000000000000010000000000000000000100000000000000000001000000000000000000000000000000000000000100000000000000000000000000000000000000010000000000000000000000000000000000000001000000000000000000000000000000000000000100000000000000000000000000000000000000010000000000000000000000000000000000011001000000000000000000000000000000000000101
101000000000000000000000000000000000000010000100000000000000000000000000000000001000000000000000000000000000000000000000100000000000000000000000000000000000000010000000000000000000000000000000000000001000000000000000000000000000000000000000100000000000000000000000000000000000000010000000000000000000100000000000000000001000000000000000000000000000000000000000100000000000000000000000000000000000000010000000000000000000000000000000000000001000000000000000000000000000000000000000100000000000000000000000000000000000000010000000000000000000000000000000000100001000000000000000000000000000000000000101
101000000000000000000000000000000000000010000011000000000000000000000000000000001000000000000000000000000000000000000000100000000000000000000000000000000000000010000000000000000000000000000000000000001000000000000000000000000000000000000000100000000000000000000000000000000000000010000000000000000000100000000000000000001000000000000000000000000000000000000000100000000000000000000000000000000000000010000000000000000000000000000000000000001000000000000000000000000000000000000000100000000000000000000000000000000000000010000000000000000000000000000000011000001000000000000000000000000000000000000101
101000000000000000000000000000000000000010000000110000000000000000000000000000001000000000000000000000000000000000000000100000000000000000000000000000000000000010000000000000000000000000000000000000001000000000000000000000000000000000000000100000000000000000000000000000000000000010000000000000000000100000000000000000001000000000000000000000000000000000000000100000000000000000000000000000000000000010000000000000000000000000000000000000001000000000000000000000000000000000000000100000000000000000000000000000000000000010000000000000000000000000000001100000001000000000000000000000000000000000000101
101000000000000000000000000000000000000010000000001100000000000000000000000000001000000000000000000000000000000000000000100000000000000000000000000000000000000010000000000000000000000000000000000000001000000000000000000000000000000000000000100000000000000000000000000000000000000010000000000000000000100000000000000000001000000000000000000000000000000000000000100000000000000000000000000000000000000010000000000000000000000000000000000000001000000000000000000000000000000000000000100000000000000000000000000000000000000010000000000000000000000000000110000000001000000000000000000000000000000000000101
101000000000000000000000000000000000000010000000000010000000000000000000000000001000000000000000000000000000000000000000100000000000000000000000000000000000000010000000000000000000000000000000000000001000000000000000000000000000000000000000100000000000000000000000000000000000000010000000000000000000100000000000000000001000000000000000000000000000000000000000100000000000000000000000000000000000000010000000000000000000000000000000000000001000000000000000000000000000000000000000100000000000000000000000000000000000000010000000000000000000000000001000000000001000000000000000000000000000000000000101
101000000000000000000000000000000000000010000000000001100000000000000000000000001000000000000000000000000000000000000000100000000000000000000000000000000000000010000000000000000000000000000000000000001000000000000000000000000000000000000000100000000000000000000000000000000000000010000000000000000000100000000000000000001000000000000000000000000000000000000000100000000000000000000000000000000000000010000000000000000000000000000000000000001000000000000000000000000000000000000000100000000000000000000000000000000000000010000000000000000000000000110000000000001000000000000000000000000000000000000101
101000000000000000000000000000000000000010000000000000011000000000000000000000001000000000000000000000000000000000000000100000000000000000000000000000000000000010000000000000000000000000000000000000001000000000000000000000000000000000000000100000000000000000000000000000000000000010000000000000000000100000000000000000001000000000000000000000000000000000000000100000000000000000000000000000000000000010000000000000000000000000000000000000001000000000000000000000000000000000000000100000000000000000000000000000000000000010000000000000000000000011000000000000001000000000000000000000000000000000000101
101000000000000000000000000000000000000010000000000000000110000000000000000000001000000000000000000000000000000000000000100000000000000000000000000000000000000010000000000000000000000000000000000000001000000000000000000000000000000000000000100000000000000000000000000000000000000010000000000000000000100000000000000000001000000000000000000000000000000000000000100000000000000000000000000000000000000010000000000000000000000000000000000000001000000000000000000000000000000000000000100000000000000000000000000000000000000010000000000000000000001100000000000000001000000000000000000000000000000000000101
101000000000000000000000000000000000000010000000000000000001000000000000000000001000000000000000000000000000000000000000100000000000000000000000000000000000000010000000000000000000000000000000000000001000000000000000000000000000000000000000100000000000000000000000000000000000000010000000000000000000100000000000000000001000000000000000000000000000000000000000100000000000000000000000000000000000000010000000000000000000000000000000000000001000000000000000000000000000000000000000100000000000000000000000000000000000000010000000000000000000110000000000000000001000000000000000000000000000000000000101
101000000000000000000000000000000000000010000000000000000000110000000000000000001000000000000000000000000000000000000000100000000000000000000000000000000000000010000000000000000000000000000000000000001000000000000000000000000000000000000000100000000000000000000000000000000000000010000000000000000000100000000000000000001000000000000000000000000000000000000000100000000000000000000000000000000000000010000000000000000000000000000000000000001000000000000000000000000000000000000000100000000000000000000000000000000000000010000000000000000001000000000000000000001000000000000000000000000000000000000101
101000000000000000000000000000000000000010000000000000000000001100000000000000001000000000000000000000000000000000000000100000000000000000000000000000000000000010000000000000000000000000000000000000001000000000000000000000000000000000000000100000000000000000000000000000000000000010000000000000000000100000000000000000001000000000000000000000000000000000000000100000000000000000000000000000000000000010000000000000000000000000000000000000001000000000000000000000000000000000000000100000000000000000000000000000000000000010000000000000000110000000000000000000001000000000000000000000000000000000000101
101000000000000000000000000000000000000010000000000000000000000011000000000000001000000000000000000000000000000000000000100000000000000000000000000000000000000010000000000000000000000000000000000000001000000000000000000000000000000000000000100000000000000000000000000000000000000010000000000000000000100000000000000000001000000000000000000000000000000000000000100000000000000000000000000000000000000010000000000000000000000000000000000000001000000000000000000000000000000000000000100000000000000000000000000000000000000010000000000000011000000000000000000000001000000000000000000000000000000000000101
101000000000000000000000000000000000000010000000000000000000000000110000000000001000000000000000000000000000000000000000100000000000000000000000000000000000000010000000000000000000000000000000000000001000000000000000000000000000000000000000100000000000000000000000000000000000000010000000000000000000100000000000000000001000000000000000000000000000000000000000100000000000000000000000000000000000000010000000000000000000000000000000000000001000000000000000000000000000000000000000100000000000000000000000000000000000000010000000000001100000000000000000000000001000000000000000000000000000000000000101
101000000000000000000000000000000000000010000000000000000000000000001000000000001000000000000000000000000000000000000000100000000000000000000000000000000000000010000000000000000000000000000000000000001000000000000000000000000000000000000000100000000000000000000000000000000000000010000000000000000000100000000000000000001000000000000000000000000000000000000000100000000000000000000000000000000000000010000000000000000000000000000000000000001000000000000000000000000000000000000000100000000000000000000000000000000000000010000000000010000000000000000000000000001000000000000000000000000000000000000101
101000000000000000000000000000000000000010000000000000000000000000000110000000001000000000000000000000000000000000000000100000000000000000000000000000000000000010000000000000000000000000000000000000001000000000000000000000000000000000000000100000000000000000000000000000000000000010000000000000000000100000000000000000001000000000000000000000000000000000000000100000000000000000000000000000000000000010000000000000000000000000000000000000001000000000000000000000000000000000000000100000000000000000000000000000000000000010000000001100000000000000000000000000001000000000000000000000000000000000000101
111111111111111111111111111111111111111111111111111111111111111111111111111111111111111111111111111111111111111111111111111111111111111111111111111111111111111111111111111111111111111111111111111111111111111111111111111111111111111111111111111111111111111111111111111111111111111111111111111111111111111111111111111111111111111111111111111111111111111111111111111111111111111111111111111111111111111111111111111111111111111111111111111111111111111111111111111111111111111111111111111111111111111111111111111111111111111111111111111111111111111111111111111111111111111111111111111111111111111111111111
101000000000000000000000000000000000000010000000000000000000000000000000011000001000000000000000000000000000000000000000100000000000000000000000000000000000000010000000000000000000000000000000000000001000000000000000000000000000000000000000100000000000000000000000000000000000000010000000000000000000100000000000000000001000000000000000000000000000000000000000100000000000000000000000000000000000000010000000000000000000000000000000000000001000000000000000000000000000000000000000100000000000000000000000000000000000000010000011000000000000000000000000000000001000000000000000000000000000000000000101
101000000000000000000000000000000000000010000000000000000000000000000000000100001000000000000000000000000000000000000000100000000000000000000000000000000000000010000000000000000000000000000000000000001000000000000000000000000000000000000000100000000000000000000000000000000000000010000000000000000000100000000000000000001000000000000000000000000000000000000000100000000000000000000000000000000000000010000000000000000000000000000000000000001000000000000000000000000000000000000000100000000000000000000000000000000000000010000100000000000000000000000000000000001000000000000000000000000000000000000101
101000000000000000000000000000000000000010000000000000000000000000000000000011001000000000000000000000000000000000000000100000000000000000000000000000000000000010000000000000000000000000000000000000001000000000000000000000000000000000000000100000000000000000000000000000000000000010000000000000000000100000000000000000001000000000000000000000000000000000000000100000000000000000000000000000000000000010000000000000000000000000000000000000001000000000000000000000000000000000000000100000000000000000000000000000000000000010011000000000000000000000000000000000001000000000000000000000000000000000000101
101000000000000000000000000000000000000010000000000000000000000000000000000000111000000000000000000000000000000000000000100000000000000000000000000000000000000010000000000000000000000000000000000000001000000000000000000000000000000000000000100000000000000000000000000000000000000010000000000000000000100000000000000000001000000000000000000000000000000000000000100000000000000000000000000000000000000010000000000000000000000000000000000000001000000000000000000000000000000000000000100000000000000000000000000000000000000011100000000000000000000000000000000000001000000000000000000000000000000000000101
101000000000000000000000000000000000000010000000000000000000000000000000000000001100000000000000000000000000000000000000100000000000000000000000000000000000000010000000000000000000000000000000000000001000000000000000000000000000000000000000100000000000000000000000000000000000000010000000000000000000100000000000000000001000000000000000000000000000000000000000100000000000000000000000000000000000000010000000000000000000000000000000000000001000000000000000000000000000000000000000100000000000000000000000000000000000000110000000000000000000000000000000000000001000000000000000000000000000000000000101
101000000000000000000000000000000000000010000000000000000000000000000000000000001010000000000000000000000000000000000000100000000000000000000000000000000000000010000000000000000000000000000000000000001000000000000000000000000000000000000000100000000000000000000000000000000000000010000000000000000000100000000000000000001000000000000000000000000000000000000000100000000000000000000000000000000000000010000000000000000000000000000000000000001000000000000000000000000000000000000000100000000000000000000000000000000000001010000000000000000000000000000000000000001000000000000000000000000000000000000101
101000000000000000000000000000000000000010000000000000000000000000000000000000001001100000000000000000000000000000000000100000000000000000000000000000000000000010000000000000000000000000000000000000001000000000000000000000000000000000000000100000000000000000000000000000000000000010000000000000000000100000000000000000001000000000000000000000000000000000000000100000000000000000000000000000000000000010000000000000000000000000000000000000001000000000000000000000000000000000000000100000000000000000000000000000000000110010000000000000000000000000000000000000001000000000000000000000000000000000000101
101000000000000000000000000000000000000010000000000000000000000000000000000000001000011000000000000000000000000000000000100000000000000000000000000000000000000010000000000000000000000000000000000000001000000000000000000000000000000000000000100000000000000000000000000000000000000010000000000000000000100000000000000000001000000000000000000000000000000000000000100000000000000000000000000000000000000010000000000000000000000000000000000000001000000000000000000000000000000000000000100000000000000000000000000000000011000010000000000000000000000000000000000000001000000000000000000000000000000000000101
101000000000000000000000000000000000000010000000000000000000000000000000000000001000000110000000000000000000000000000000100000000000000000000000000000000000000010000000000000000000000000000000000000001000000000000000000000000000000000000000100000000000000000000000000000000000000010000000000000000000100000000000000000001000000000000000000000000000000000000000100000000000000000000000000000000000000010000000000000000000000000000000000000001000000000000000000000000000000000000000100000000000000000000000000000001100000010000000000000000000000000000000000000001000000000000000000000000000000000000101
101000000000000000000000000000000000000010000000000000000000000000000000000000001000000001000000000000000000000000000000100000000000000000000000000000000000000010000000000000000000000000000000000000001000000000000000000000000000000000000000100000000000000000000000000000000000000010000000000000000000100000000000000000001000000000000000000000000000000000000000100000000000000000000000000000000000000010000000000000000000000000000000000000001000000000000000000000000000000000000000100000000000000000000000000000110000000010000000000000000000000000000000000000001000000000000000000000000000000000000101
101000000000000000000000000000000000000010000000000000000000000000000000000000001000000000110000000000000000000000000000100000000000000000000000000000000000000010000000000000000000000000000000000000001000000000000000000000000000000000000000100000000000000000000000000000000000000010000000000000000000100000000000000000001000000000000000000000000000000000000000100000000000000000000000000000000000000010000000000000000000000000000000000000001000000000000000000000000000000000000000100000000000000000000000000001000000000010000000000000000000000000000000000000001000000000000000000000000000000000000101
101000000000000000000000000000000000000010000000000000000000000000000000000000001000000000001100000000000000000000000000100000000000000000000000000000000000000010000000000000000000000000000000000000001000000000000000000000000000000000000000100000000000000000000000000000000000000010000000000000000000100000000000000000001000000000000000000000000000000000000000100000000000000000000000000000000000000010000000000000000000000000000000000000001000000000000000000000000000000000000000100000000000000000000000000110000000000010000000000000000000000000000000000000001000000000000000000000000000000000000101
101000000000000000000000000000000000000010000000000000000000000000000000000000001000000000000011000000000000000000000000100000000000000000000000000000000000000010000000000000000000000000000000000000001000000000000000000000000000000000000000100000000000000000000000000000000000000010000000000000000000100000000000000000001000000000000000000000000000000000000000100000000000000000000000000000000000000010000000000000000000000000000000000000001000000000000000000000000000000000000000100000000000000000000000011000000000000010000000000000000000000000000000000000001000000000000000000000000000000000000101
101000000000000000000000000000000000000010000000000000000000000000000000000000001000000000000000110000000000000000000000100000000000000000000000000000000000000010000000000000000000000000000000000000001000000000000000000000000000000000000000100000000000000000000000000000000000000010000000000000000000100000000000000000001000000000000000000000000000000000000000100000000000000000000000000000000000000010000000000000000000000000000000000000001000000000000000000000000000000000000000100000000000000000000001100000000000000010000000000000000000000000000000000000001000000000000000000000000000000000000101
101000000000000000000000000000000000000010000000000000000000000000000000000000001000000000000000001000000000000000000000100000000000000000000000000000000000000010000000000000000000000000000000000000001000000000000000000000000000000000000000100000000000000000000000000000000000000010000000000000000000100000000000000000001000000000000000000000000000000000000000100000000000000000000000000000000000000010000000000000000000000000000000000000001000000000000000000000000000000000000000100000000000000000000010000000000000000010000000000000000000000000000000000000001000000000000000000000000000000000000101
101000000000000000000000000000000000000010000000000000000000000000000000000000001000000000000000000110000000000000000000100000000000000000000000000000000000000010000000000000000000000000000000000000001000000000000000000000000000000000000000100000000000000000000000000000000000000010000000000000000000100000000000000000001000000000000000000000000000000000000000100000000000000000000000000000000000000010000000000000000000000000000000000000001000000000000000000000000000000000000000100000000000000000001100000000000000000010000000000000000000000000000000000000001000000000000000000000000000000000000101
101000000000000000000000000000000000000010000000000000000000000000000000000000001000000000000000000001100000000000000000100000000000000000000000000000000000000010000000000000000000000000000000000000001000000000000000000000000000000000000000100000000000000000000000000000000000000010000000000000000000100000000000000000001000000000000000000000000000000000000000100000000000000000000000000000000000000010000000000000000000000000000000000000001000000000000000000000000000000000000000100000000000000000110000000000000000000010000000000000000000000000000000000000001000000000000000000000000000000000000101
101000000000000000000000000000000000000010000000000000000000000000000000000000001000000000000000000000011000000000000000100000000000000000000000000000000000000010000000000000000000000000000000000000001000000000000000000000000000000000000000100000000000000000000000000000000000000010000000000000000000100000000000000000001000000000000000000000000000000000000000100000000000000000000000000000000000000010000000000000000000000000000000000000001000000000000000000000000000000000000000100000000000000011000000000000000000000010000000000000000000000000000000000000001000000000000000000000000000000000000101
101000000000000000000000000000000000000010000000000000000000000000000000000000001000000000000000000000000100000000000000100000000000000000000000000000000000000010000000000000000000000000000000000000001000000000000000000000000000000000000000100000000000000000000000000000000000000010000000000000000000100000000000000000001000000000000000000000000000000000000000100000000000000000000000000000000000000010000000000000000000000000000000000000001000000000000000000000000000000000000000100000000000000100000000000000000000000010000000000000000000000000000000000000001000000000000000000000000000000000000101
101000000000000000000000000000000000000010000000000000000000000000000000000000001000000000000000000000000011000000000000100000000000000000000000000000000000000010000000000000000000000000000000000000001000000000000000000000000000000000000000100000000000000000000000000000000000000010000000000000000000100000000000000000001000000000000000000000000000000000000000100000000000000000000000000000000000000010000000000000000000000000000000000000001000000000000000000000000000000000000000100000000000011000000000000000000000000010000000000000000000000000000000000000001000000000000000000000000000000000000101
101000000000000000000000000000000000000010000000000000000000000000000000000000001000000000000000000000000000110000000000100000000000000000000000000000000000000010000000000000000000000000000000000000001000000000000000000000000000000000000000100000000000000000000000000000000000000010000000000000000000100000000000000000001000000000000000000000000000000000000000100000000000000000000000000000000000000010000000000000000000000000000000000000001000000000000000000000000000000000000000100000000001100000000000000000000000000010000000000000000000000000000000000000001000000000000000000000000000000000000101
101000000000000000000000000000000000000010000000000000000000000000000000000000001000000000000000000000000000001100000000100000000000000000000000000000000000000010000000000000000000000000000000000000001000000000000000000000000000000000000000100000000000000000000000000000000000000010000000000000000000100000000000000000001000000000000000000000000000000000000000100000000000000000000000000000000000000010000000000000000000000000000000000000001000000000000000000000000000000000000000100000000110000000000000000000000000000010000000000000000000000000000000000000001000000000000000000000000000000000000101
101000000000000000000000000000000000000010000000000000000000000000000000000000001000000000000000000000000000000010000000100000000000000000000000000000000000000010000000000000000000000000000000000000001000000000000000000000000000000000000000100000000000000000000000000000000000000010000000000000000000100000000000000000001000000000000000000000000000000000000000100000000000000000000000000000000000000010000000000000000000000000000000000000001000000000000000000000000000000000000000100000001000000000000000000000000000000010000000000000000000000000000000000000001000000000000000000000000000000000000101
101000000000000000000000000000000000000010000000000000000000000000000000000000001000000000000000000000000000000001100000100000000000000000000000000000000000000010000000000000000000000000000000000000001000000000000000000000000000000000000000100000000000000000000000000000000000000010000000000000000000100000000000000000001000000000000000000000000000000000000000100000000000000000000000000000000000000010000000000000000000000000000000000000001000000000000000000000000000000000000000100000110000000000000000000000000000000010000000000000000000000000000000000000001000000000000000000000000000000000000101
101000000000000000000000000000000000000010000000000000000000000000000000000000001000000000000000000000000000000000011000100000000000000000000000000000000000000010000000000000000000000000000000000000001000000000000000000000000000000000000000100000000000000000000000000000000000000010000000000000000000100000000000000000001000000000000000000000000000000000000000100000000000000000000000000000000000000010000000000000000000000000000000000000001000000000000000000000000000000000000000100011000000000000000000000000000000000010000000000000000000000000000000000000001000000000000000000000000000000000000101
101000000000000000000000000000000000000010000000000000000000000000000000000000001000000000000000000000000000000000000110100000000000000000000000000000000000000010000000000000000000000000000000000000001000000000000000000000000000000000000000100000000000000000000000000000000000000010000000000000000000100000000000000000001000000000000000000000000000000000000000100000000000000000000000000000000000000010000000000000000000000000000000000000001000000000000000000000000000000000000000101100000000000000000000000000000000000010000000000000000000000000000000000000001000000000000000000000000000000000000101
101000000000000000000000000000000000000010000000000000000000000000000000000000001000000000000000000000000000000000000001100000000000000000000000000000000000000010000000000000000000000000000000000000001000000000000000000000000000000000000000100000000000000000000000000000000000000010000000000000000000100000000000000000001000000000000000000000000000000000000000100000000000000000000000000000000000000010000000000000000000000000000000000000001000000000000000000000000000000000000000110000000000000000000000000000000000000010000000000000000000000000000000000000001000000000000000000000000000000000000101
101000000000000000000000000000000000000010000000000000000000000000000000000000001000000000000000000000000000000000000000110000000000000000000000000000000000000010000000000000000000000000000000000000001000000000000000000000000000000000000000100000000000000000000000000000000000000010000000000000000000100000000000000000001000000000000000000000000000000000000000100000000000000000000000000000000000000010000000000000000000000000000000000000001000000000000000000000000000000000000001100000000000000000000000000000000000000010000000000000000000000000000000000000001000000000000000000000000000000000000101
101000000000000000000000000000000000000010000000000000000000000000000000000000001000000000000000000000000000000000000000101100000000000000000000000000000000000010000000000000000000000000000000000000001000000000000000000000000000000000000000100000000000000000000000000000000000000010000000000000000000100000000000000000001000000000000000000000000000000000000000100000000000000000000000000000000000000010000000000000000000000000000000000000001000000000000000000000000000000000000110100000000000000000000000000000000000000010000000000000000000000000000000000000001000000000000000000000000000000000000101
101000000000000000000000000000000000000010000000000000000000000000000000000000001000000000000000000000000000000000000000100011000000000000000000000000000000000010000000000000000000000000000000000000001000000000000000000000000000000000000000100000000000000000000000000000000000000010000000000000000000100000000000000000001000000000000000000000000000000000000000100000000000000000000000000000000000000010000000000000000000000000000000000000001000000000000000000000000000000000011000100000000000000000000000000000000000000010000000000000000000000000000000000000001000000000000000000000000000000000000101
101000000000000000000000000000000000000010000000000000000000000000000000000000001000000000000000000000000000000000000000100000110000000000000000000000000000000010000000000000000000000000000000000000001000000000000000000000000000000000000000100000000000000000000000000000000000000010000000000000000000100000000000000000001000000000000000000000000000000000000000100000000000000000000000000000000000000010000000000000000000000000000000000000001000000000000000000000000000000001100000100000000000000000000000000000000000000010000000000000000000000000000000000000001000000000000000000000000000000000000101
101000000000000000000000000000000000000010000000000000000000000000000000000000001000000000000000000000000000000000000000100000001000000000000000000000000000000010000000000000000000000000000000000000001000000000000000000000000000000000000000100000000000000000000000000000000000000010000000000000000000100000000000000000001000000000000000000000000000000000000000100000000000000000000000000000000000000010000000000000000000000000000000000000001000000000000000000000000000000010000000100000000000000000000000000000000000000010000000000000000000000000000000000000001000000000000000000000000000000000000101
101000000000000000000000000000000000000010000000000000000000000000000000000000001000000000000000000000000000000000000000100000000110000000000000000000000000000010000000000000000000000000000000000000001000000000000000000000000000000000000000100000000000000000000000000000000000000010000000000000000000100000000000000000001000000000000000000000000000000000000000100000000000000000000000000000000000000010000000000000000000000000000000000000001000000000000000000000000000001100000000100000000000000000000000000000000000000010000000000000000000000000000000000000001000000000000000000000000000000000000101
101000000000000000000000000000000000000010000000000000000000000000000000000000001000000000000000000000000000000000000000100000000001100000000000000000000000000010000000000000000000000000000000000000001000000000000000000000000000000000000000100000000000000000000000000000000000000010000000000000000000100000000000000000001000000000000000000000000000000000000000100000000000000000000000000000000000000010000000000000000000000000000000000000001000000000000000000000000000110000000000100000000000000000000000000000000000000010000000000000000000000000000000000000001000000000000000000000000000000000000101
101000000000000000000000000000000000000010000000000000000000000000000000000000001000000000000000000000000000000000000000100000000000011000000000000000000000000010000000000000000000000000000000000000001000000000000000000000000000000000000000100000000000000000000000000000000000000010000000000000000000100000000000000000001000000000000000000000000000000000000000100000000000000000000000000000000000000010000000000000000000000000000000000000001000000000000000000000000011000000000000100000000000000000000000000000000000000010000000000000000000000000000000000000001000000000000000000000000000000000000101
101000000000000000000000000000000000000010000000000000000000000000000000000000001000000000000000000000000000000000000000100000000000000100000000000000000000000010000000000000000000000000000000000000001000000000000000000000000000000000000000100000000000000000000000000000000000000010000000000000000000100000000000000000001000000000000000000000000000000000000000100000000000000000000000000000000000000010000000000000000000000000000000000000001000000000000000000000000100000000000000100000000000000000000000000000000000000010000000000000000000000000000000000000001000000000000000000000000000000000000101
101000000000000000000000000000000000000010000000000000000000000000000000000000001000000000000000000000000000000000000000100000000000000011000000000000000000000010000000000000000000000000000000000000001000000000000000000000000000000000000000100000000000000000000000000000000000000010000000000000000000100000000000000000001000000000000000000000000000000000000000100000000000000000000000000000000000000010000000000000000000000000000000000000001000000000000000000000011000000000000000100000000000000000000000000000000000000010000000000000000000000000000000000000001000000000000000000000000000000000000101
101000000000000000000000000000000000000010000000000000000000000000000000000000001000000000000000000000000000000000000000100000000000000000110000000000000000000010000000000000000000000000000000000000001000000000000000000000000000000000000000100000000000000000000000000000000000000010000000000000000000100000000000000000001000000000000000000000000000000000000000100000000000000000000000000000000000000010000000000000000000000000000000000000001000000000000000000001100000000000000000100000000000000000000000000000000000000010000000000000000000000000000000000000001000000000000000000000000000000000000101
101000000000000000000000000000000000000010000000000000000000000000000000000000001000000000000000000000000000000000000000100000000000000000001100000000000000000010000000000000000000000000000000000000001000000000000000000000000000000000000000100000000000000000000000000000000000000010000000000000000000100000000000000000001000000000000000000000000000000000000000100000000000000000000000000000000000000010000000000000000000000000000000000000001000000000000000000110000000000000000000100000000000000000000000000000000000000010000000000000000000000000000000000000001000000000000000000000000000000000000101
111111111111111111111111111111111111111111111111111111111111111111111111111111111111111111111111111111111111111111111111111111111111111111111111111111111111111111111111111111111111111111111111111111111111111111111111111111111111111111111111111111111111111111111111111111111111111111111111111111111111111111111111111111111111111111111111111111111111111111111111111111111111111111111111111111111111111111111111111111111111111111111111111111111111111111111111111111111111111111111111111111111111111111111111111111111111111111111111111111111111111111111111111111111111111111111111111111111111111111111111
101000000000000000000000000000000000000010000000000000000000000000000000000000001000000000000000000000000000000000000000100000000000000000000001100000000000000010000000000000000000000000000000000000001000000000000000000000000000000000000000100000000000000000000000000000000000000010000000000000000000100000000000000000001000000000000000000000000000000000000000100000000000000000000000000000000000000010000000000000000000000000000000000000001000000000000000110000000000000000000000100000000000000000000000000000000000000010000000000000000000000000000000000000001000000000000000000000000000000000000101
101000000000000000000000000000000000000010000000000000000000000000000000000000001000000000000000000000000000000000000000100000000000000000000000011000000000000010000000000000000000000000000000000000001000000000000000000000000000000000000000100000000000000000000000000000000000000010000000000000000000100000000000000000001000000000000000000000000000000000000000100000000000000000000000000000000000000010000000000000000000000000000000000000001000000000000011000000000000000000000000100000000000000000000000000000000000000010000000000000000000000000000000000000001000000000000000000000000000000000000101
101000000000000000000000000000000000000010000000000000000000000000000000000000001000000000000000000000000000000000000000100000000000000000000000000110000000000010000000000000000000000000000000000000001000000000000000000000000000000000000000100000000000000000000000000000000000000010000000000000000000100000000000000000001000000000000000000000000000000000000000100000000000000000000000000000000000000010000000000000000000000000000000000000001000000000001100000000000000000000000000100000000000000000000000000000000000000010000000000000000000000000000000000000001000000000000000000000000000000000000101
101000000000000000000000000000000000000010000000000000000000000000000000000000001000000000000000000000000000000000000000100000000000000000000000000001000000000010000000000000000000000000000000000000001000000000000000000000000000000000000000100000000000000000000000000000000000000010000000000000000000100000000000000000001000000000000000000000000000000000000000100000000000000000000000000000000000000010000000000000000000000000000000000000001000000000110000000000000000000000000000100000000000000000000000000000000000000010000000000000000000000000000000000000001000000000000000000000000000000000000101
101000000000000000000000000000000000000010000000000000000000000000000000000000001000000000000000000000000000000000000000100000000000000000000000000000110000000010000000000000000000000000000000000000001000000000000000000000000000000000000000100000000000000000000000000000000000000010000000000000000000100000000000000000001000000000000000000000000000000000000000100000000000000000000000000000000000000010000000000000000000000000000000000000001000000001000000000000000000000000000000100000000000000000000000000000000000000010000000000000000000000000000000000000001000000000000000000000000000000000000101
101000000000000000000000000000000000000010000000000000000000000000000000000000001000000000000000000000000000000000000000100000000000000000000000000000001100000010000000000000000000000000000000000000001000000000000000000000000000000000000000100000000000000000000000000000000000000010000000000000000000100000000000000000001000000000000000000000000000000000000000100000000000000000000000000000000000000010000000000000000000000000000000000000001000000110000000000000000000000000000000100000000000000000000000000000000000000010000000000000000000000000000000000000001000000000000000000000000000000000000101
101000000000000000000000000000000000000010000000000000000000000000000000000000001000000000000000000000000000000000000000100000000000000000000000000000000011000010000000000000000000000000000000000000001000000000000000000000000000000000000000100000000000000000000000000000000000000010000000000000000000100000000000000000001000000000000000000000000000000000000000100000000000000000000000000000000000000010000000000000000000000000000000000000001000011000000000000000000000000000000000100000000000000000000000000000000000000010000000000000000000000000000000000000001000000000000000000000000000000000000101
101000000000000000000000000000000000000010000000000000000000000000000000000000001000000000000000000000000000000000000000100000000000000000000000000000000000110010000000000000000000000000000000000000001000000000000000000000000000000000000000100000000000000000000000000000000000000010000000000000000000100000000000000000001000000000000000000000000000000000000000100000000000000000000000000000000000000010000000000000000000000000000000000000001001100000000000000000000000000000000000100000000000000000000000000000000000000010000000000000000000000000000000000000001000000000000000000000000000000000000101
101000000000000000000000000000000000000010000000000000000000000000000000000000001000000000000000000000000000000000000000100000000000000000000000000000000000001010000000000000000000000000000000000000001000000000000000000000000000000000000000100000000000000000000000000000000000000010000000000000000000100000000000000000001000000000000000000000000000000000000000100000000000000000000000000000000000000010000000000000000000000000000000000000001010000000000000000000000000000000000000100000000000000000000000000000000000000010000000000000000000000000000000000000001000000000000000000000000000000000000101
101000000000000000000000000000000000000010000000000000000000000000000000000000001000000000000000000000000000000000000000100000000000000000000000000000000000000110000000000000000000000000000000000000001000000000000000000000000000000000000000100000000000000000000000000000000000000010000000000000000000100000000000000000001000000000000000000000000000000000000000100000000000000000000000000000000000000010000000000000000000000000000000000000001100000000000000000000000000000000000000100000000000000000000000000000000000000010000000000000000000000000000000000000001000000000000000000000000000000000000101
101000000000000000000000000000000000000010000000000000000000000000000000000000001000000000000000000000000000000000000000100000000000000000000000000000000000000011100000000000000000000000000000000000001000000000000000000000000000000000000000100000000000000000000000000000000000000010000000000000000000100000000000000000001000000000000000000000000000000000000000100000000000000000000000000000000000000010000000000000000000000000000000000000111000000000000000000000000000000000000000100000000000000000000000000000000000000010000000000000000000000000000000000000001000000000000000000000000000000000000101
101000000000000000000000000000000000000010000000000000000000000000000000000000001000000000000000000000000000000000000000100000000000000000000000000000000000000010011000000000000000000000000000000000001000000000000000000000000000000000000000100000000000000000000000000000000000000010000000000000000000100000000000000000001000000000000000000000000000000000000000100000000000000000000000000000000000000010000000000000000000000000000000000011001000000000000000000000000000000000000000100000000000000000000000000000000000000010000000000000000000000000000000000000001000000000000000000000000000000000000101
101000000000000000000000000000000000000010000000000000000000000000000000000000001000000000000000000000000000000000000000100000000000000000000000000000000000000010000100000000000000000000000000000000001000000000000000000000000000000000000000100000000000000000000000000000000000000010000000000000000000100000000000000000001000000000000000000000000000000000000000100000000000000000000000000000000000000010000000000000000000000000000000000100001000000000000000000000000000000000000000100000000000000000000000000000000000000010000000000000000000000000000000000000001000000000000000000000000000000000000101
101000000000000000000000000000000000000010000000000000000000000000000000000000001000000000000000000000000000000000000000100000000000000000000000000000000000000010000011000000000000000000000000000000001000000000000000000000000000000000000000100000000000000000000000000000000000000010000000000000000000100000000000000000001000000000000000000000000000000000000000100000000000000000000000000000000000000010000000000000000000000000000000011000001000000000000000000000000000000000000000100000000000000000000000000000000000000010000000000000000000000000000000000000001000000000000000000000000000000000000101
101000000000000000000000000000000000000010000000000000000000000000000000000000001000000000000000000000000000000000000000100000000000000000000000000000000000000010000000110000000000000000000000000000001000000000000000000000000000000000000000100000000000000000000000000000000000000010000000000000000000100000000000000000001000000000000000000000000000000000000000100000000000000000000000000000000000000010000000000000000000000000000001100000001000000000000000000000000000000000000000100000000000000000000000000000000000000010000000000000000000000000000000000000001000000000000000000000000000000000000101
101000000000000000000000000000000000000010000000000000000000000000000000000000001000000000000000000000000000000000000000100000000000000000000000000000000000000010000000001100000000000000000000000000001000000000000000000000000000000000000000100000000000000000000000000000000000000010000000000000000000100000000000000000001000000000000000000000000000000000000000100000000000000000000000000000000000000010000000000000000000000000000110000000001000000000000000000000000000000000000000100000000000000000000000000000000000000010000000000000000000000000000000000000001000000000000000000000000000000000000101
101000000000000000000000000000000000000010000000000000000000000000000000000000001000000000000000000000000000000000000000100000000000000000000000000000000000000010000000000010000000000000000000000000001000000000000000000000000000000000000000100000000000000000000000000000000000000010000000000000000000100000000000000000001000000000000000000000000000000000000000100000000000000000000000000000000000000010000000000000000000000000001000000000001000000000000000000000000000000000000000100000000000000000000000000000000000000010000000000000000000000000000000000000001000000000000000000000000000000000000101
101000000000000000000000000000000000000010000000000000000000000000000000000000001000000000000000000000000000000000000000100000000000000000000000000000000000000010000000000001100000000000000000000000001000000000000000000000000000000000000000100000000000000000000000000000000000000010000000000000000000100000000000000000001000000000000000000000000000000000000000100000000000000000000000000000000000000010000000000000000000000000110000000000001000000000000000000000000000000000000000100000000000000000000000000000000000000010000000000000000000000000000000000000001000000000000000000000000000000000000101
101000000000000000000000000000000000000010000000000000000000000000000000000000001000000000000000000000000000000000000000100000000000000000000000000000000000000010000000000000011000000000000000000000001000000000000000000000000000000000000000100000000000000000000000000000000000000010000000000000000000100000000000000000001000000000000000000000000000000000000000100000000000000000000000000000000000000010000000000000000000000011000000000000001000000000000000000000000000000000000000100000000000000000000000000000000000000010000000000000000000000000000000000000001000000000000000000000000000000000000101
101000000000000000000000000000000000000010000000000000000000000000000000000000001000000000000000000000000000000000000000100000000000000000000000000000000000000010000000000000000110000000000000000000001000000000000000000000000000000000000000100000000000000000000000000000000000000010000000000000000000100000000000000000001000000000000000000000000000000000000000100000000000000000000000000000000000000010000000000000000000001100000000000000001000000000000000000000000000000000000000100000000000000000000000000000000000000010000000000000000000000000000000000000001000000000000000000000000000000000000101
101000000000000000000000000000000000000010000000000000000000000000000000000000001000000000000000000000000000000000000000100000000000000000000000000000000000000010000000000000000001000000000000000000001000000000000000000000000000000000000000100000000000000000000000000000000000000010000000000000000000100000000000000000001000000000000000000000000000000000000000100000000000000000000000000000000000000010000000000000000000110000000000000000001000000000000000000000000000000000000000100000000000000000000000000000000000000010000000000000000000000000000000000000001000000000000000000000000000000000000101
101000000000000000000000000000000000000010000000000000000000000000000000000000001000000000000000000000000000000000000000100000000000000000000000000000000000000010000000000000000000110000000000000000001000000000000000000000000000000000000000100000000000000000000000000000000000000010000000000000000000100000000000000000001000000000000000000000000000000000000000100000000000000000000000000000000000000010000000000000000001000000000000000000001000000000000000000000000000000000000000100000000000000000000000000000000000000010000000000000000000000000000000000000001000000000000000000000000000000000000101
101000000000000000000000000000000000000010000000000000000000000000000000000000001000000000000000000000000000000000000000100000000000000000000000000000000000000010000000000000000000001100000000000000001000000000000000000000000000000000000000100000000000000000000000000000000000000010000000000000000000100000000000000000001000000000000000000000000000000000000000100000000000000000000000000000000000000010000000000000000110000000000000000000001000000000000000000000000000000000000000100000000000000000000000000000000000000010000000000000000000000000000000000000001000000000000000000000000000000000000101
101000000000000000000000000000000000000010000000000000000000000000000000000000001000000000000000000000000000000000000000100000000000000000000000000000000000000010000000000000000000000011000000000000001000000000000000000000000000000000000000100000000000000000000000000000000000000010000000000000000000100000000000000000001000000000000000000000000000000000000000100000000000000000000000000000000000000010000000000000011000000000000000000000001000000000000000000000000000000000000000100000000000000000000000000000000000000010000000000000000000000000000000000000001000000000000000000000000000000000000101
101000000000000000000000000000000000000010000000000000000000000000000000000000001000000000000000000000000000000000000000100000000000000000000000000000000000000010000000000000000000000000110000000000001000000000000000000000000000000000000000100000000000000000000000000000000000000010000000000000000000100000000000000000001000000000000000000000000000000000000000100000000000000000000000000000000000000010000000000001100000000000000000000000001000000000000000000000000000000000000000100000000000000000000000000000000000000010000000000000000000000000000000000000001000000000000000000000000000000000000101
101000000000000000000000000000000000000010000000000000000000000000000000000000001000000000000000000000000000000000000000100000000000000000000000000000000000000010000000000000000000000000001000000000001000000000000000000000000000000000000000100000000000000000000000000000000000000010000000000000000000100000000000000000001000000000000000000000000000000000000000100000000000000000000000000000000000000010000000000010000000000000000000000000001000000000000000000000000000000000000000100000000000000000000000000000000000000010000000000000000000000000000000000000001000000000000000000000000000000000000101
101000000000000000000000000000000000000010000000000000000000000000000000000000001000000000000000000000000000000000000000100000000000000000000000000000000000000010000000000000000000000000000110000000001000000000000000000000000000000000000000100000000000000000000000000000000000000010000000000000000000100000000000000000001000000000000000000000000000000000000000100000000000000000000000000000000000000010000000001100000000000000000000000000001000000000000000000000000000000000000000100000000000000000000000000000000000000010000000000000000000000000000000000000001000000000000000000000000000000000000101
101000000000000000000000000000000000000010000000000000000000000000000000000000001000000000000000000000000000000000000000100000000000000000000000000000000000000010000000000000000000000000000001100000001000000000000000000000000000000000000000100000000000000000000000000000000000000010000000000000000000100000000000000000001000000000000000000000000000000000000000100000000000000000000000000000000000000010000000110000000000000000000000000000001000000000000000000000000000000000000000100000000000000000000000000000000000000010000000000000000000000000000000000000001000000000000000000000000000000000000101
101000000000000000000000000000000000000010000000000000000000000000000000000000001000000000000000000000000000000000000000100000000000000000000000000000000000000010000000000000000000000000000000011000001000000000000000000000000000000000000000100000000000000000000000000000000000000010000000000000000000100000000000000000001000000000000000000000000000000000000000100000000000000000000000000000000000000010000011000000000000000000000000000000001000000000000000000000000000000000000000100000000000000000000000000000000000000010000000000000000000000000000000000000001000000000000000000000000000000000000101
101000000000000000000000000000000000000010000000000000000000000000000000000000001000000000000000000000000000000000000000100000000000000000000000000000000000000010000000000000000000000000000000000100001000000000000000000000000000000000000000100000000000000000000000000000000000000010000000000000000000100000000000000000001000000000000000000000000000000000000000100000000000000000000000000000000000000010000100000000000000000000000000000000001000000000000000000000000000000000000000100000000000000000000000000000000000000010000000000000000000000000000000000000001000000000000000000000000000000000000101
101000000000000000000000000000000000000010000000000000000000000000000000000000001000000000000000000000000000000000000000100000000000000000000000000000000000000010000000000000000000000000000000000011001000000000000000000000000000000000000000100000000000000000000000000000000000000010000000000000000000100000000000000000001000000000000000000000000000000000000000100000000000000000000000000000000000000010011000000000000000000000000000000000001000000000000000000000000000000000000000100000000000000000000000000000000000000010000000000000000000000000000000000000001000000000000000000000000000000000000101
101000000000000000000000000000000000000010000000000000000000000000000000000000001000000000000000000000000000000000000000100000000000000000000000000000000000000010000000000000000000000000000000000000111000000000000000000000000000000000000000100000000000000000000000000000000000000010000000000000000000100000000000000000001000000000000000000000000000000000000000100000000000000000000000000000000000000011100000000000000000000000000000000000001000000000000000000000000000000000000000100000000000000000000000000000000000000010000000000000000000000000000000000000001000000000000000000000000000000000000101
101000000000000000000000000000000000000010000000000000000000000000000000000000001000000000000000000000000000000000000000100000000000000000000000000000000000000010000000000000000000000000000000000000001100000000000000000000000000000000000000100000000000000000000000000000000000000010000000000000000000100000000000000000001000000000000000000000000000000000000000100000000000000000000000000000000000000110000000000000000000000000000000000000001000000000000000000000000000000000000000100000000000000000000000000000000000000010000000000000000000000000000000000000001000000000000000000000000000000000000101
101000000000000000000000000000000000000010000000000000000000000000000000000000001000000000000000000000000000000000000000100000000000000000000000000000000000000010000000000000000000000000000000000000001010000000000000000000000000000000000000100000000000000000000000000000000000000010000000000000000000100000000000000000001000000000000000000000000000000000000000100000000000000000000000000000000000001010000000000000000000000000000000000000001000000000000000000000000000000000000000100000000000000000000000000000000000000010000000000000000000000000000000000000001000000000000000000000000000000000000101
101000000000000000000000000000000000000010000000000000000000000000000000000000001000000000000000000000000000000000000000100000000000000000000000000000000000000010000000000000000000000000000000000000001001100000000000000000000000000000000000100000000000000000000000000000000000000010000000000000000000100000000000000000001000000000000000000000000000000000000000100000000000000000000000000000000000110010000000000000000000000000000000000000001000000000000000000000000000000000000000100000000000000000000000000000000000000010000000000000000000000000000000000000001000000000000000000000000000000000000101
101000000000000000000000000000000000000010000000000000000000000000000000000000001000000000000000000000000000000000000000100000000000000000000000000000000000000010000000000000000000000000000000000000001000011000000000000000000000000000000000100000000000000000000000000000000000000010000000000000000000100000000000000000001000000000000000000000000000000000000000100000000000000000000000000000000011000010000000000000000000000000000000000000001000000000000000000000000000000000000000100000000000000000000000000000000000000010000000000000000000000000000000000000001000000000000000000000000000000000000101
101000000000000000000000000000000000000010000000000000000000000000000000000000001000000000000000000000000000000000000000100000000000000000000000000000000000000010000000000000000000000000000000000000001000000110000000000000000000000000000000100000000000000000000000000000000000000010000000000000000000100000000000000000001000000000000000000000000000000000000000100000000000000000000000000000001100000010000000000000000000000000000000000000001000000000000000000000000000000000000000100000000000000000000000000000000000000010000000000000000000000000000000000000001000000000000000000000000000000000000101
101000000000000000000000000000000000000010000000000000000000000000000000000000001000000000000000000000000000000000000000100000000000000000000000000000000000000010000000000000000000000000000000000000001000000001000000000000000000000000000000100000000000000000000000000000000000000010000000000000000000100000000000000000001000000000000000000000000000000000000000100000000000000000000000000000110000000010000000000000000000000000000000000000001000000000000000000000000000000000000000100000000000000000000000000000000000000010000000000000000000000000000000000000001000000000000000000000000000000000000101
101000000000000000000000000000000000000010000000000000000000000000000000000000001000000000000000000000000000000000000000100000000000000000000000000000000000000010000000000000000000000000000000000000001000000000110000000000000000000000000000100000000000000000000000000000000000000010000000000000000000100000000000000000001000000000000000000000000000000000000000100000000000000000000000000001000000000010000000000000000000000000000000000000001000000000000000000000000000000000000000100000000000000000000000000000000000000010000000000000000000000000000000000000001000000000000000000000000000000000000101
111111111111111111111111111111111111111111111111111111111111111111111111111111111111111111111111111111111111111111111111111111111111111111111111111111111111111111111111111111111111111111111111111111111111111111111111111111111111111111111111111111111111111111111111111111111111111111111111111111111111111111111111111111111111111111111111111111111111111111111111111111111111111111111111111111111111111111111111111111111111111111111111111111111111111111111111111111111111111111111111111111111111111111111111111111111111111111111111111111111111111111111111111111111111111111111111111111111111111111111111
101000000000000000000000000000000000000010000000000000000000000000000000000000001000000000000000000000000000000000000000100000000000000000000000000000000000000010000000000000000000000000000000000000001000000000000011000000000000000000000000100000000000000000000000000000000000000010000000000000000000100000000000000000001000000000000000000000000000000000000000100000000000000000000000011000000000000010000000000000000000000000000000000000001000000000000000000000000000000000000000100000000000000000000000000000000000000010000000000000000000000000000000000000001000000000000000000000000000000000000101
101000000000000000000000000000000000000010000000000000000000000000000000000000001000000000000000000000000000000000000000100000000000000000000000000000000000000010000000000000000000000000000000000000001000000000000000110000000000000000000000100000000000000000000000000000000000000010000000000000000000100000000000000000001000000000000000000000000000000000000000100000000000000000000001100000000000000010000000000000000000000000000000000000001000000000000000000000000000000000000000100000000000000000000000000000000000000010000000000000000000000000000000000000001000000000000000000000000000000000000101
101000000000000000000000000000000000000010000000000000000000000000000000000000001000000000000000000000000000000000000000100000000000000000000000000000000000000010000000000000000000000000000000000000001000000000000000001000000000000000000000100000000000000000000000000000000000000010000000000000000000100000000000000000001000000000000000000000000000000000000000100000000000000000000010000000000000000010000000000000000000000000000000000000001000000000000000000000000000000000000000100000000000000000000000000000000000000010000000000000000000000000000000000000001000000000000000000000000000000000000101
101000000000000000000000000000000000000010000000000000000000000000000000000000001000000000000000000000000000000000000000100000000000000000000000000000000000000010000000000000000000000000000000000000001000000000000000000110000000000000000000100000000000000000000000000000000000000010000000000000000000100000000000000000001000000000000000000000000000000000000000100000000000000000001100000000000000000010000000000000000000000000000000000000001000000000000000000000000000000000000000100000000000000000000000000000000000000010000000000000000000000000000000000000001000000000000000000000000000000000000101
101000000000000000000000000000000000000010000000000000000000000000000000000000001000000000000000000000000000000000000000100000000000000000000000000000000000000010000000000000000000000000000000000000001000000000000000000001100000000000000000100000000000000000000000000000000000000010000000000000000000100000000000000000001000000000000000000000000000000000000000100000000000000000110000000000000000000010000000000000000000000000000000000000001000000000000000000000000000000000000000100000000000000000000000000000000000000010000000000000000000000000000000000000001000000000000000000000000000000000000101
101000000000000000000000000000000000000010000000000000000000000000000000000000001000000000000000000000000000000000000000100000000000000000000000000000000000000010000000000000000000000000000000000000001000000000000000000000011000000000000000100000000000000000000000000000000000000010000000000000000000100000000000000000001000000000000000000000000000000000000000100000000000000011000000000000000000000010000000000000000000000000000000000000001000000000000000000000000000000000000000100000000000000000000000000000000000000010000000000000000000000000000000000000001000000000000000000000000000000000000101
101000000000000000000000000000000000000010000000000000000000000000000000000000001000000000000000000000000000000000000000100000000000000000000000000000000000000010000000000000000000000000000000000000001000000000000000000000000100000000000000100000000000000000000000000000000000000010000000000000000000100000000000000000001000000000000000000000000000000000000000100000000000000100000000000000000000000010000000000000000000000000000000000000001000000000000000000000000000000000000000100000000000000000000000000000000000000010000000000000000000000000000000000000001000000000000000000000000000000000000101
101000000000000000000000000000000000000010000000000000000000000000000000000000001000000000000000000000000000000000000000100000000000000000000000000000000000000010000000000000000000000000000000000000001000000000000000000000000011000000000000100000000000000000000000000000000000000010000000000000000000100000000000000000001000000000000000000000000000000000000000100000000000011000000000000000000000000010000000000000000000000000000000000000001000000000000000000000000000000000000000100000000000000000000000000000000000000010000000000000000000000000000000000000001000000000000000000000000000000000000101
101000000000000000000000000000000000000010000000000000000000000000000000000000001000000000000000000000000000000000000000100000000000000000000000000000000000000010000000000000000000000000000000000000001000000000000000000000000000110000000000100000000000000000000000000000000000000010000000000000000000100000000000000000001000000000000000000000000000000000000000100000000001100000000000000000000000000010000000000000000000000000000000000000001000000000000000000000000000000000000000100000000000000000000000000000000000000010000000000000000000000000000000000000001000000000000000000000000000000000000101
101000000000000000000000000000000000000010000000000000000000000000000000000000001000000000000000000000000000000000000000100000000000000000000000000000000000000010000000000000000000000000000000000000001000000000000000000000000000001100000000100000000000000000000000000000000000000010000000000000000000100000000000000000001000000000000000000000000000000000000000100000000110000000000000000000000000000010000000000000000000000000000000000000001000000000000000000000000000000000000000100000000000000000000000000000000000000010000000000000000000000000000000000000001000000000000000000000000000000000000101
101000000000000000000000000000000000000010000000000000000000000000000000000000001000000000000000000000000000000000000000100000000000000000000000000000000000000010000000000000000000000000000000000000001000000000000000000000000000000010000000100000000000000000000000000000000000000010000000000000000000100000000000000000001000000000000000000000000000000000000000100000001000000000000000000000000000000010000000000000000000000000000000000000001000000000000000000000000000000000000000100000000000000000000000000000000000000010000000000000000000000000000000000000001000000000000000000000000000000000000101
101000000000000000000000000000000000000010000000000000000000000000000000000000001000000000000000000000000000000000000000100000000000000000000000000000000000000010000000000000000000000000000000000000001000000000000000000000000000000001100000100000000000000000000000000000000000000010000000000000000000100000000000000000001000000000000000000000000000000000000000100000110000000000000000000000000000000010000000000000000000000000000000000000001000000000000000000000000000000000000000100000000000000000000000000000000000000010000000000000000000000000000000000000001000000000000000000000000000000000000101
101000000000000000000000000000000000000010000000000000000000000000000000000000001000000000000000000000000000000000000000100000000000000000000000000000000000000010000000000000000000000000000000000000001000000000000000000000000000000000011000100000000000000000000000000000000000000010000000000000000000100000000000000000001000000000000000000000000000000000000000100011000000000000000000000000000000000010000000000000000000000000000000000000001000000000000000000000000000000000000000100000000000000000000000000000000000000010000000000000000000000000000000000000001000000000000000000000000000000000000101
101000000000000000000000000000000000000010000000000000000000000000000000000000001000000000000000000000000000000000000000100000000000000000000000000000000000000010000000000000000000000000000000000000001000000000000000000000000000000000000110100000000000000000000000000000000000000010000000000000000000100000000000000000001000000000000000000000000000000000000000101100000000000000000000000000000000000010000000000000000000000000000000000000001000000000000000000000000000000000000000100000000000000000000000000000000000000010000000000000000000000000000000000000001000000000000000000000000000000000000101
101000000000000000000000000000000000000010000000000000000000000000000000000000001000000000000000000000000000000000000000100000000000000000000000000000000000000010000000000000000000000000000000000000001000000000000000000000000000000000000001100000000000000000000000000000000000000010000000000000000000100000000000000000001000000000000000000000000000000000000000110000000000000000000000000000000000000010000000000000000000000000000000000000001000000000000000000000000000000000000000100000000000000000000000000000000000000010000000000000000000000000000000000000001000000000000000000000000000000000000101
101000000000000000000000000000000000000010000000000000000000000000000000000000001000000000000000000000000000000000000000100000000000000000000000000000000000000010000000000000000000000000000000000000001000000000000000000000000000000000000000110000000000000000000000000000000000000010000000000000000000100000000000000000001000000000000000000000000000000000000001100000000000000000000000000000000000000010000000000000000000000000000000000000001000000000000000000000000000000000000000100000000000000000000000000000000000000010000000000000000000000000000000000000001000000000000000000000000000000000000101
101000000000000000000000000000000000000010000000000000000000000000000000000000001000000000000000000000000000000000000000100000000000000000000000000000000000000010000000000000000000000000000000000000001000000000000000000000000000000000000000101100000000000000000000000000000000000010000000000000000000100000000000000000001000000000000000000000000000000000000110100000000000000000000000000000000000000010000000000000000000000000000000000000001000000000000000000000000000000000000000100000000000000000000000000000000000000010000000000000000000000000000000000000001000000000000000000000000000000000000101
101000000000000000000000000000000000000010000000000000000000000000000000000000001000000000000000000000000000000000000000100000000000000000000000000000000000000010000000000000000000000000000000000000001000000000000000000000000000000000000000100011000000000000000000000000000000000010000000000000000000100000000000000000001000000000000000000000000000000000011000100000000000000000000000000000000000000010000000000000000000000000000000000000001000000000000000000000000000000000000000100000000000000000000000000000000000000010000000000000000000000000000000000000001000000000000000000000000000000000000101
101000000000000000000000000000000000000010000000000000000000000000000000000000001000000000000000000000000000000000000000100000000000000000000000000000000000000010000000000000000000000000000000000000001000000000000000000000000000000000000000100000110000000000000000000000000000000010000000000000000000100000000000000000001000000000000000000000000000000001100000100000000000000000000000000000000000000010000000000000000000000000000000000000001000000000000000000000000000000000000000100000000000000000000000000000000000000010000000000000000000000000000000000000001000000000000000000000000000000000000101
101000000000000000000000000000000000000010000000000000000000000000000000000000001000000000000000000000000000000000000000100000000000000000000000000000000000000010000000000000000000000000000000000000001000000000000000000000000000000000000000100000001000000000000000000000000000000010000000000000000000100000000000000000001000000000000000000000000000000010000000100000000000000000000000000000000000000010000000000000000000000000000000000000001000000000000000000000000000000000000000100000000000000000000000000000000000000010000000000000000000000000000000000000001000000000000000000000000000000000000101
101000000000000000000000000000000000000010000000000000000000000000000000000000001000000000000000000000000000000000000000100000000000000000000000000000000000000010000000000000000000000000000000000000001000000000000000000000000000000000000000100000000110000000000000000000000000000010000000000000000000100000000000000000001000000000000000000000000000001100000000100000000000000000000000000000000000000010000000000000000000000000000000000000001000000000000000000000000000000000000000100000000000000000000000000000000000000010000000000000000000000000000000000000001000000000000000000000000000000000000101
101000000000000000000000000000000000000010000000000000000000000000000000000000001000000000000000000000000000000000000000100000000000000000000000000000000000000010000000000000000000000000000000000000001000000000000000000000000000000000000000100000000001100000000000000000000000000010000000000000000000100000000000000000001000000000000000000000000000110000000000100000000000000000000000000000000000000010000000000000000000000000000000000000001000000000000000000000000000000000000000100000000000000000000000000000000000000010000000000000000000000000000000000000001000000000000000000000000000000000000101
101000000000000000000000000000000000000010000000000000000000000000000000000000001000000000000000000000000000000000000000100000000000000000000000000000000000000010000000000000000000000000000000000000001000000000000000000000000000000000000000100000000000011000000000000000000000000010000000000000000000100000000000000000001000000000000000000000000011000000000000100000000000000000000000000000000000000010000000000000000000000000000000000000001000000000000000000000000000000000000000100000000000000000000000000000000000000010000000000000000000000000000000000000001000000000000000000000000000000000000101
101000000000000000000000000000000000000010000000000000000000000000000000000000001000000000000000000000000000000000000000100000000000000000000000000000000000000010000000000000000000000000000000000000001000000000000000000000000000000000000000100000000000000100000000000000000000000010000000000000000000100000000000000000001000000000000000000000000100000000000000100000000000000000000000000000000000000010000000000000000000000000000000000000001000000000000000000000000000000000000000100000000000000000000000000000000000000010000000000000000000000000000000000000001000000000000000000000000000000000000101
101000000000000000000000000000000000000010000000000000000000000000000000000000001000000000000000000000000000000000000000100000000000000000000000000000000000000010000000000000000000000000000000000000001000000000000000000000000000000000000000100000000000000011000000000000000000000010000000000000000000100000000000000000001000000000000000000000011000000000000000100000000000000000000000000000000000000010000000000000000000000000000000000000001000000000000000000000000000000000000000100000000000000000000000000000000000000010000000000000000000000000000000000000001000000000000000000000000000000000000101
101000000000000000000000000000000000000010000000000000000000000000000000000000001000000000000000000000000000000000000000100000000000000000000000000000000000000010000000000000000000000000000000000000001000000000000000000000000000000000000000100000000000000000110000000000000000000010000000000000000000100000000000000000001000000000000000000001100000000000000000100000000000000000000000000000000000000010000000000000000000000000000000000000001000000000000000000000000000000000000000100000000000000000000000000000000000000010000000000000000000000000000000000000001000000000000000000000000000000000000101
101000000000000000000000000000000000000010000000000000000000000000000000000000001000000000000000000000000000000000000000100000000000000000000000000000000000000010000000000000000000000000000000000000001000000000000000000000000000000000000000100000000000000000001100000000000000000010000000000000000000100000000000000000001000000000000000000110000000000000000000100000000000000000000000000000000000000010000000000000000000000000000000000000001000000000000000000000000000000000000000100000000000000000000000000000000000000010000000000000000000000000000000000000001000000000000000000000000000000000000101
101000000000000000000000000000000000000010000000000000000000000000000000000000001000000000000000000000000000000000000000100000000000000000000000000000000000000010000000000000000000000000000000000000001000000000000000000000000000000000000000100000000000000000000010000000000000000010000000000000000000100000000000000000001000000000000000001000000000000000000000100000000000000000000000000000000000000010000000000000000000000000000000000000001000000000000000000000000000000000000000100000000000000000000000000000000000000010000000000000000000000000000000000000001000000000000000000000000000000000000101
101000000000000000000000000000000000000010000000000000000000000000000000000000001000000000000000000000000000000000000000100000000000000000000000000000000000000010000000000000000000000000000000000000001000000000000000000000000000000000000000100000000000000000000001100000000000000010000000000000000000100000000000000000001000000000000000110000000000000000000000100000000000000000000000000000000000000010000000000000000000000000000000000000001000000000000000000000000000000000000000100000000000000000000000000000000000000010000000000000000000000000000000000000001000000000000000000000000000000000000101
101000000000000000000000000000000000000010000000000000000000000111111111000000111111111111111000111000000000111000111111111111111000111000000000000000111111111111111000000111111111000000000111111111111000000000000000000000000000111111000000100000000111000000000111111111000000000010000000000000000000100111000000000111111111000000000111111111000000000000000000100000111111111111000000111000000000111010111000000000111000000000000000000000001000000000000000000000000000000000000000100000000000000000000000000000000000000010000000000000000000000000000000000000001000000000000000000000000000000000000101
101000000000000000000000000000000000000010000000000000000000000111111111000000111111111111111000111000000000111000111111111111111000111000000000000000111111111111111000000111111111000000000111111111111000000000000000000000000000111111000000100000000111000000000111111111000000000010000000000000000000100111000000000111111111000000001111111111000000000000000000100000111111111111000000111000000000111010111000000000111000000000000000000000001000000000000000000000000000000000000000100000000000000000000000000000000000000010000000000000000000000000000000000000001000000000000000000000000000000000000101
101000000000000000000000000000000000000010000000000000000000000111111111000000111111111111111000111000000000111000111111111111111000111000000000000000111111111111111000000111111111000000000111111111111000000000000000000000000000111111000000100000000111000000000111111111000000000010000000000000000000100111000000000111111111000000110111111111000000000000000000100000111111111111000000111000000000111010111000000000111000000000000000000000001000000000000000000000000000000000000000100000000000000000000000000000000000000010000000000000000000000000000000000000001000000000000000000000000000000000000101
101000000000000000000000000000000000000010000000000000000000111000000000111000111000000000000000111111000000111000000000111000000000111000000000000000111000000010000000111000000000111000111000000000001000000000000000000000000111000000000000100000111111000000111000000000111000000010000000000000000000111111000000111000001000111001111000000000111000000000000000100000111000000000111000111111000111111010111000000000111000000000000000000000001000000000000000000000000000000000000000100000000000000000000000000000000000000010000000000000000000000000000000000000001000000000000000000000000000000000000101
101000000000000000000000000000000000000010000000000000000000111000000000111000111000000000000000111111000000111000000000111000000000111000000000000000111000000010000000111000000000111000111000000000001000000000000000000000000111000000000000100000111111000000111000000000111100000010000000000000000000111111000000111000001000111110111000000000111000000000000000100000111000000000111000111111000111111010111000000000111000000000000000000000001000000000000000000000000000000000000000100000000000000000000000000000000000000010000000000000000000000000000000000000001000000000000000000000000000000000000101
101000000000000000000000000000000000000010000000000000000000111000000000111000111000000000000000111111000000111000000000111000000000111000000000000000111000000010000000111000000000111000111000000000001000000000000000000000000111000000000000100000111111000000111000000000111011000010000000000000000000111111000000111000001000111000111000000000111000000000000000100000111000000000111000111111000111111010111000000000111000000000000000000000001000000000000000000000000000000000000000100000000000000000000000000000000000000010000000000000000000000000000000000000001000000000000000000000000000000000000101
101000000000000000000000000000000000000010000000000000000000111000000000000000111000000000000000111000111000111000000000111000000000111000000000000000111000000010000000111000000000111000111000000000001000000000000000000000111000000000000000100111000111000000111000000111111000111010000000111000000111100111000000111000001111111000111000000111111000000000000000100000111000000000111000111000111000111010111000000000111000000000000000000000001000000000000000000000000000000000000000100000000000000000000000000000000000000010000000000000000000000000000000000000001000000000000000000000000000000000000101
101000000000000000000000000000000000000010000000000000000000111000000000000000111000000000000000111000111000111000000000111000000000111000000000000000111000000010000000111000000000111000111000000000001000000000000000000000111000000000000000100111000111000000111000000111111000111010000000111000000111100111000000111000001111111000111000000111111000000000000000100000111000000000111000111000111000111010111000000000111000000000000000000000001000000000000000000000000000000000000000100000000000000000000000000000000000000010000000000000000000000000000000000000001000000000000000000000000000000000000101
101000000000000000000000000000000000000010000000000000000000111000000000000000111000000000000000111000111000111000000000111000000000111000000000000000111000000010000000111000000000111000111000000000001000000000000000000000111000000000000000100111000111000000111000000111111000111110000000111000000111100111000000111000001111111000111000000111111000000000000000100000111000000000111000111000111000111010111000000000111000000000000000000000001000000000000000000000000000000000000000100000000000000000000000000000000000000010000000000000000000000000000000000000001000000000000000000000000000000000000101
101000000000000000000000000000000000000010000000000000000000111000111111111000111111111111000000111000000111111000000000111000000000111000000000000000111111111111000000111000000000111000000111111111001000000000000000000000111111111111000000111000000111000000111000111000111000000111100111000000111000100111000000111000111000111000111000111000111000000000000000100000111000000000111000111000111000111010111000000000111000000000000000000000001000000000000000000000000000000000000000100000000000000000000000000000000000000010000000000000000000000000000000000000001000000000000000000000000000000000000101
111111111111111111111111111111111111111111111111111111111111111111111111111111111111111111111111111111111111111111111111111111111111111111111111111111111111111111111111111111111111111111111111111111111111111111111111111111111111111111111111111111111111111111111111111111111111111111111111111111111111111111111111111111111111111111111111111111111111111111111111111111111111111111111111111111111111111111111111111111111111111111111111111111111111111111111111111111111111111111111111111111111111111111111111111111111111111111111111111111111111111111111111111111111111111111111111111111111111111111111111
101000000000000000000000000000000000000010000000000000000000111000111111111000111111111111000000111000000111111000000000111000000000111000000000000000111111111111000000111000000000111000000111111111001000000000000000000000111111111111000000111000000111000000111000111000111000000111000111000000111000100111000000111100111000111000111000111000111000000000000000100000111000000000111000111000111000111010111000000000111000000000000000000000001000000000000000000000000000000000000000100000000000000000000000000000000000000010000000000000000000000000000000000000001000000000000000000000000000000000000101
101000000000000000000000000000000000000010000000000000000000111000000000111000111000000000000000111000000000111000000000111000000000111000000000000000111000000010000000111000000000111000000000000000111000000000000000000000111000000000111000111111111111111000111111000000111000000010111011000000111111111111111000111111001000111000111111000000111000000000000000100000111000000000111000111000000000111010111000000000111000000000000000000000001000000000000000000000000000000000000000100000000000000000000000000000000000000010000000000000000000000000000000000000001000000000000000000000000000000000000101
101000000000000000000000000000000000000010000000000000000000111000000000111000111000000000000000111000000000111000000000111000000000111000000000000000111000000010000000111000000000111000000000000000111000000000000000000000111000000000111000111111111111111000111111000000111000000010111000110000111111111111111001111111001000111000111111000000111000000000000000100000111000000000111000111000000000111010111000000000111000000000000000000000001000000000000000000000000000000000000000100000000000000000000000000000000000000010000000000000000000000000000000000000001000000000000000000000000000000000000101
101000000000000000000000000000000000000010000000000000000000111000000000111000111000000000000000111000000000111000000000111000000000111000000000000000111000000010000000111000000000111000000000000000111000000000000000000000111000000000111000111111111111111000111111000000111000000010111000001100111111111111111110111111001000111000111111000000111000000000000000100000111000000000111000111000000000111010111000000000111000000000000000000000001000000000000000000000000000000000000000100000000000000000000000000000000000000010000000000000000000000000000000000000001000000000000000000000000000000000000101
101000000000000000000000000000000000000010000000000000000000111000000000111000111000000000000000111000000000111000000000111000000000111000000000000000111000000010000000111000000000111000000000000000111000000000000000000000111000000000111000100000000111000000111000000000111000000111000111000010000000100111001000111000001000111000111000000000111000000000000000100000111000000000111000111000000000111010000111000111000000000000000000000000001000000000000000000000000000000000000000100000000000000000000000000000000000000010000000000000000000000000000000000000001000000000000000000000000000000000000101
101000000000000000000000000000000000000010000000000000000000111000000000111000111000000000000000111000000000111000000000111000000000111000000000000000111000000010000000111000000000111000000000000000111000000000000000000000111000000000111000100000000111000000111000000000111000000111000111000001100000100111110000111000001000111000111000000000111000000000000000100000111000000000111000111000000000111010000111000111000000000000000000000000001000000000000000000000000000000000000000100000000000000000000000000000000000000010000000000000000000000000000000000000001000000000000000000000000000000000000101
101000000000000000000000000000000000000010000000000000000000111000000000111000111000000000000000111000000000111000000000111000000000111000000000000000111000000010000000111000000000111000000000000000111000000000000000000000111000000000111000100000000111000000111000000000111000000111000111000000011000100111000000111000001000111000111000000000111000000000000000100000111000000000111000111000000000111010000111000111000000000000000000000000001000000000000000000000000000000000000000100000000000000000000000000000000000000010000000000000000000000000000000000000001000000000000000000000000000000000000101
101000000000000000000000000000000000000010000000000000000000000111111111000000111111111111111000111000000000111000000000111000000000111111111111111000111111111111111000000111111111000000111111111111001000000000000000000000000111111111000000100000000111000000000111111111000000111010000000111000000110101111000000000111111111000000000111111111000000000000000000100000111111111111000000111000000000111010000000111000000000000000000000000000001000000000000000000000000000000000000000100000000000000000000000000000000000000010000000000000000000000000000000000000001000000000000000000000000000000000000101
101000000000000000000000000000000000000010000000000000000000000111111111000000111111111111111000111000000000111000000000111000000000111111111111111000111111111111111000000111111111000000111111111111001000000000000000000000000111111111000000100000000111000000000111111111000000111010000000111000000001110111000000000111111111000000000111111111000000000000000000100000111111111111000000111000000000111010000000111000000000000000000000000000001000000000000000000000000000000000000000100000000000000000000000000000000000000010000000000000000000000000000000000000001000000000000000000000000000000000000101
111111111111111111111111111111111111111111111111111111111111111111111111111111111111111111111111111111111111111111111111111111111111111111111111111111111111111111111111111111111111111111111111111111111111111111111111111111111111111111111111111111111111111111111111111111111111111111111111111111111111111111111111111111111111111111111111111111111111111111111111111111111111111111111111111111111111111111111111111111111111111111111111111111111111111111111111111111111111111111111111111111111111111111111111111111111111111111111111111111111111111111111111111111111111111111111111111111111111111111111111
101000000000000000000000000000000000000010000000000000000000000000000000000000001000000000000000000000000000000000000000100000000000000000000000000000000000000010000000000000000000000000000000000000001000000000000000000000000000000000000000100000000000000000000000000000000000000010000000000000000110101100000000000000001000000000000000000000000000000000000000100000000000000000000000000000000000000010000000000000000000000000000000000000001000000000000000000000000000000000000000100000000000000000000000000000000000000010000000000000000000000000000000000000001000000000000000000000000000000000000101
101000000000000000000000000000000000000010000000000000000000000000000000000000001000000000000000000000000000000000000000100000000000000000000000000000000000000010000000000000000000000000000000000000001000000000000000000000000000000000000000100000000000000000000000000000000000000010000000000000011000100011000000000000001000000000000000000000000000000000000000100000000000000000000000000000000000000010000000000000000000000000000000000000001000000000000000000000000000000000000000100000000000000000000000000000000000000010000000000000000000000000000000000000001000000000000000000000000000000000000101
101000000000000000000000000000000000000010000000000000000000000000000000000000001000000000000000000000000000000000000000100000000000000000000000000000000000000010000000000000000000000000000000000000001000000000000000000000000000000000000000100000000000000000000000000000000000000010000000000001100000100000110000000000001000000000000000000000000000000000000000100000000000000000000000000000000000000010000000000000000000000000000000000000001000000000000000000000000000000000000000100000000000000000000000000000000000000010000000000000000000000000000000000000001000000000000000000000000000000000000101
101000000000000000000000000000000000000010000000000000000000000000000000000000001000000000000000000000000000000000000000100000000000000000000000000000000000000010000000000000000000000000000000000000001000000000000000000000000000000000000000100000000000000000000000000000000000000010000000000010000000100000001000000000001000000000000000000000000000000000000000100000000000000000000000000000000000000010000000000000000000000000000000000000001000000000000000000000000000000000000000100000000000000000000000000000000000000010000000000000000000000000000000000000001000000000000000000000000000000000000101
101000000000000000000000000000000000000010000000000000000000000000000000000000001000000000000000000000000000000000000000100000000000000000000000000000000000000010000000000000000000000000000000000000001000000000000000000000000000000000000000100000000000000000000000000000000000000010000000001100000000100000000110000000001000000000000000000000000000000000000000100000000000000000000000000000000000000010000000000000000000000000000000000000001000000000000000000000000000000000000000100000000000000000000000000000000000000010000000000000000000000000000000000000001000000000000000000000000000000000000101
101000000000000000000000000000000000000010000000000000000000000000000000000000001000000000000000000000000000000000000000100000000000000000000000000000000000000010000000000000000000000000000000000000001000000000000000000000000000000000000000100000000000000000000000000000000000000010000000110000000000100000000001100000001000000000000000000000000000000000000000100000000000000000000000000000000000000010000000000000000000000000000000000000001000000000000000000000000000000000000000100000000000000000000000000000000000000010000000000000000000000000000000000000001000000000000000000000000000000000000101
101000000000000000000000000000000000000010000000000000000000000000000000000000001000000000000000000000000000000000000000100000000000000000000000000000000000000010000000000000000000000000000000000000001000000000000000000000000000000000000000100000000000000000000000000000000000000010000011000000000000100000000000011000001000000000000000000000000000000000000000100000000000000000000000000000000000000010000000000000000000000000000000000000001000000000000000000000000000000000000000100000000000000000000000000000000000000010000000000000000000000000000000000000001000000000000000000000000000000000000101
101000000000000000000000000000000000000010000000000000000000000000000000000000001000000000000000000000000000000000000000100000000000000000000000000000000000000010000000000000000000000000000000000000001000000000000000000000000000000000000000100000000000000000000000000000000000000010000100000000000000100000000000000100001000000000000000000000000000000000000000100000000000000000000000000000000000000010000000000000000000000000000000000000001000000000000000000000000000000000000000100000000000000000000000000000000000000010000000000000000000000000000000000000001000000000000000000000000000000000000101
101000000000000000000000000000000000000010000000000000000000000000000000000000001000000000000000000000000000000000000000100000000000000000000000000000000000000010000000000000000000000000000000000000001000000000000000000000000000000000000000100000000000000000000000000000000000000010011000000000000000100000000000000011001000000000000000000000000000000000000000100000000000000000000000000000000000000010000000000000000000000000000000000000001000000000000000000000000000000000000000100000000000000000000000000000000000000010000000000000000000000000000000000000001000000000000000000000000000000000000101
101000000000000000000000000000000000000010000000000000000000000000000000000000001000000000000000000000000000000000000000100000000000000000000000000000000000000010000000000000000000000000000000000000001000000000000000000000000000000000000000100000000000000000000000000000000000000011100000000000000000100000000000000000111000000000000000000000000000000000000000100000000000000000000000000000000000000010000000000000000000000000000000000000001000000000000000000000000000000000000000100000000000000000000000000000000000000010000000000000000000000000000000000000001000000000000000000000000000000000000101
101000000000000000000000000000000000000010000000000000000000000000000000000000001000000000000000000000000000000000000000100000000000000000000000000000000000000010000000000000000000000000000000000000001000000000000000000000000000000000000000100000000000000000000000000000000000000110000000000000000000100000000000000000001100000000000000000000000000000000000000100000000000000000000000000000000000000010000000000000000000000000000000000000001000000000000000000000000000000000000000100000000000000000000000000000000000000010000000000000000000000000000000000000001000000000000000000000000000000000000101
101000000000000000000000000000000000000010000000000000000000000000000000000000001000000000000000000000000000000000000000100000000000000000000000000000000000000010000000000000000000000000000000000000001000000000000000000000000000000000000000100000000000000000000000000000000000001010000000000000000000100000000000000000001010000000000000000000000000000000000000100000000000000000000000000000000000000010000000000000000000000000000000000000001000000000000000000000000000000000000000100000000000000000000000000000000000000010000000000000000000000000000000000000001000000000000000000000000000000000000101
101000000000000000000000000000000000000010000000000000000000000000000000000000001000000000000000000000000000000000000000100000000000000000000000000000000000000010000000000000000000000000000000000000001000000000000000000000000000000000000000100000000000000000000000000000000000110010000000000000000000100000000000000000001001100000000000000000000000000000000000100000000000000000000000000000000000000010000000000000000000000000000000000000001000000000000000000000000000000000000000100000000000000000000000000000000000000010000000000000000000000000000000000000001000000000000000000000000000000000000101
101000000000000000000000000000000000000010000000000000000000000000000000000000001000000000000000000000000000000000000000100000000000000000000000000000000000000010000000000000000000000000000000000000001000000000000000000000000000000000000000100000000000000000000000000000000011000010000000000000000000100000000000000000001000011000000000000000000000000000000000100000000000000000000000000000000000000010000000000000000000000000000000000000001000000000000000000000000000000000000000100000000000000000000000000000000000000010000000000000000000000000000000000000001000000000000000000000000000000000000101
101000000000000000000000000000000000000010000000000000000000000000000000000000001000000000000000000000000000000000000000100000000000000000000000000000000000000010000000000000000000000000000000000000001000000000000000000000000000000000000000100000000000000000000000000000001100000010000000000000000000100000000000000000001000000110000000000000000000000000000000100000000000000000000000000000000000000010000000000000000000000000000000000000001000000000000000000000000000000000000000100000000000000000000000000000000000000010000000000000000000000000000000000000001000000000000000000000000000000000000101
101000000000000000000000000000000000000010000000000000000000000000000000000000001000000000000000000000000000000000000000100000000000000000000000000000000000000010000000000000000000000000000000000000001000000000000000000000000000000000000000100000000000000000000000000000110000000010000000000000000000100000000000000000001000000001000000000000000000000000000000100000000000000000000000000000000000000010000000000000000000000000000000000000001000000000000000000000000000000000000000100000000000000000000000000000000000000010000000000000000000000000000000000000001000000000000000000000000000000000000101
101000000000000000000000000000000000000010000000000000000000000000000000000000001000000000000000000000000000000000000000100000000000000000000000000000000000000010000000000000000000000000000000000000001000000000000000000000000000000000000000100000000000000000000000000001000000000010000000000000000000100000000000000000001000000000110000000000000000000000000000100000000000000000000000000000000000000010000000000000000000000000000000000000001000000000000000000000000000000000000000100000000000000000000000000000000000000010000000000000000000000000000000000000001000000000000000000000000000000000000101
101000000000000000000000000000000000000010000000000000000000000000000000000000001000000000000000000000000000000000000000100000000000000000000000000000000000000010000000000000000000000000000000000000001000000000000000000000000000000000000000100000000000000000000000000110000000000010000000000000000000100000000000000000001000000000001100000000000000000000000000100000000000000000000000000000000000000010000000000000000000000000000000000000001000000000000000000000000000000000000000100000000000000000000000000000000000000010000000000000000000000000000000000000001000000000000000000000000000000000000101
101000000000000000000000000000000000000010000000000000000000000000000000000000001000000000000000000000000000000000000000100000000000000000000000000000000000000010000000000000000000000000000000000000001000000000000000000000000000000000000000100000000000000000000000011000000000000010000000000000000000100000000000000000001000000000000011000000000000000000000000100000000000000000000000000000000000000010000000000000000000000000000000000000001000000000000000000000000000000000000000100000000000000000000000000000000000000010000000000000000000000000000000000000001000000000000000000000000000000000000101
101000000000000000000000000000000000000010000000000000000000000111111111000000111111111111000000000000000000000000000000100000000000111111111111111000111111111111111000000111111111111000111111111111111000000000000000000000000000000000000000111000000000000000111111111111000000000010000000000000000000100000000000000000001000000000000000110000000000000000000000100000000000000000000000000000000000000010000000000000000000000000000000000000001000000000000000000000000000000000000000100000000000000000000000000000000000000010000000000000000000000000000000000000001000000000000000000000000000000000000101
101000000000000000000000000000000000000010000000000000000000000111111111000000111111111111000000000000000000000000000000100000000000111111111111111000111111111111111000000111111111111000111111111111111000000000000000000000000000000000000000111000000000000000111111111111000000000010000000000000000000100000000000000000001000000000000000001000000000000000000000100000000000000000000000000000000000000010000000000000000000000000000000000000001000000000000000000000000000000000000000100000000000000000000000000000000000000010000000000000000000000000000000000000001000000000000000000000000000000000000101
101000000000000000000000000000000000000010000000000000000000000111111111000000111111111111000000000000000000000000000000100000000000111111111111111000111111111111111000000111111111111000111111111111111000000000000000000000000000000000000000111000000000000000111111111111000000000010000000000000000000100000000000000000001000000000000000000110000000000000000000100000000000000000000000000000000000000010000000000000000000000000000000000000001000000000000000000000000000000000000000100000000000000000000000000000000000000010000000000000000000000000000000000000001000000000000000000000000000000000000101
101000000000000000000000000000000000000010000000000000000000111000000000111000111000000000111000000000000000000000000000100000000000000000111000000000111000000010000000111000000000000000000000111000001000000000000000000000000000000000000000111000000000000000111000000000111000000010000000000000000000100000000000000000001000000000000000000001100000000000000000100000000000000000000000000000000000000010000000000000000000000000000000000000001000000000000000000000000000000000000000100000000000000000000000000000000000000010000000000000000000000000000000000000001000000000000000000000000000000000000101
101000000000000000000000000000000000000010000000000000000000111000000000111000111000000000111000000000000000000000000000100000000000000000111000000000111000000010000000111000000000000000000000111000001000000000000000000000000000000000000000111000000000000011111000000000111000000010000000000000000000100000000000000000001000000000000000000000011000000000000000100000000000000000000000000000000000000010000000000000000000000000000000000000001000000000000000000000000000000000000000100000000000000000000000000000000000000010000000000000000000000000000000000000001000000000000000000000000000000000000101
101000000000000000000000000000000000000010000000000000000000111000000000111000111000000000111000000000000000000000000000100000000000000000111000000000111000000010000000111000000000000000000000111000001000000000000000000000000000000000000000111000000000000100111000000000111000000010000000000000000000100000000000000000001000000000000000000000000100000000000000100000000000000000000000000000000000000010000000000000000000000000000000000000001000000000000000000000000000000000000000100000000000000000000000000000000000000010000000000000000000000000000000000000001000000000000000000000000000000000000101
101000000000000000000000000000000000000010000000000000000000111000000000000000111000000000111000000000000000000000000000100000000000000000111000000000111000000010000000111000000000000000000000111000001000000000000000000000000000000000000000111000000000011000111000000000111000000010000000000000000000100000000000000000001000000000000000000000000011000000000000100000000000000000000000000000000000000010000000000000000000000000000000000000001000000000000000000000000000000000000000100000000000000000000000000000000000000010000000000000000000000000000000000000001000000000000000000000000000000000000101
101000000000000000000000000000000000000010000000000000000000111000000000000000111000000000111000000000000000000000000000100000000000000000111000000000111000000010000000111000000000000000000000111000001000000000000000000000000000000000000000111000000001100000111000000000111000000010000000000000000000100000000000000000001000000000000000000000000000110000000000100000000000000000000000000000000000000010000000000000000000000000000000000000001000000000000000000000000000000000000000100000000000000000000000000000000000000010000000000000000000000000000000000000001000000000000000000000000000000000000101
101000000000000000000000000000000000000010000000000000000000111000000000000000111000000000111000000000000000000000000000100000000000000000111000000000111000000010000000111000000000000000000000111000001000000000000000000000000000000000000000111000000110000000111000000000111000000010000000000000000000100000000000000000001000000000000000000000000000001100000000100000000000000000000000000000000000000010000000000000000000000000000000000000001000000000000000000000000000000000000000100000000000000000000000000000000000000010000000000000000000000000000000000000001000000000000000000000000000000000000101
101000000000000000000000000000000000000010000000000000000000111000111111111000111000000000111000000000000000000000000000100000000000000000111000000000111111111111000000000111111111000000000000111000001000000000000000000000000000000000000000111000001000000000111000000000111000000010000000000000000000100000000000000000001000000000000000000000000000000010000000100000000000000000000000000000000000000010000000000000000000000000000000000000001000000000000000000000000000000000000000100000000000000000000000000000000000000010000000000000000000000000000000000000001000000000000000000000000000000000000101
111111111111111111111111111111111111111111111111111111111111111111111111111111111111111111111111111111111111111111111111111111111111111111111111111111111111111111111111111111111111111111111111111111111111111111111111111111111111111111111111111111111111111111111111111111111111111111111111111111111111111111111111111111111111111111111111111111111111111111111111111111111111111111111111111111111111111111111111111111111111111111111111111111111111111111111111111111111111111111111111111111111111111111111111111111111111111111111111111111111111111111111111111111111111111111111111111111111111111111111111
101000000000000000000000000000000000000010000000000000000000111000111111111000111000000000111000000000000000000000000000100000000000000000111000000000111111111111000000000111111111000000000000111000001000000000000000000000000000000000000000111011000000000000111000000000111000000010000000000000000000100000000000000000001000000000000000000000000000000000011000100000000000000000000000000000000000000010000000000000000000000000000000000000001000000000000000000000000000000000000000100000000000000000000000000000000000000010000000000000000000000000000000000000001000000000000000000000000000000000000101
101000000000000000000000000000000000000010000000000000000000111000000000111000111000000000111000000000000000000000000000100000000000000000111000000000111000000010000000000000000000111000000000111000001000000000000000000000000000000000000000111100000000000000111000000000111000000010000000000000000000100000000000000000001000000000000000000000000000000000000110100000000000000000000000000000000000000010000000000000000000000000000000000000001000000000000000000000000000000000000000100000000000000000000000000000000000000010000000000000000000000000000000000000001000000000000000000000000000000000000101
101000000000000000000000000000000000000010000000000000000000111000000000111000111000000000111000000000000000000000000000100000000000000000111000000000111000000010000000000000000000111000000000111000001000000000000000000000000000000000000000111000000000000000111000000000111000000010000000000000000000100000000000000000001000000000000000000000000000000000000001100000000000000000000000000000000000000010000000000000000000000000000000000000001000000000000000000000000000000000000000100000000000000000000000000000000000000010000000000000000000000000000000000000001000000000000000000000000000000000000101
101000000000000000000000000000000000000010000000000000000000111000000000111000111000000000111000000000000000000000000000100000000000000000111000000000111000000010000000000000000000111000000000111000001000000000000000000000000000000000000001111000000000000000111000000000111000000010000000000000000000100000000000000000001000000000000000000000000000000000000000110000000000000000000000000000000000000010000000000000000000000000000000000000001000000000000000000000000000000000000000100000000000000000000000000000000000000010000000000000000000000000000000000000001000000000000000000000000000000000000101
101000000000000000000000000000000000000010000000000000000000111000000000111000111000000000111000000000000000000000000000100000000000000000111000000000111000000010000000000000000000111000000000111000001000000000000000000000000000000000000110111000000000000000111000000000111000000010000000000000000000100000000000000000001000000000000000000000000000000000000000101100000000000000000000000000000000000010000000000000000000000000000000000000001000000000000000000000000000000000000000100000000000000000000000000000000000000010000000000000000000000000000000000000001000000000000000000000000000000000000101
101000000000000000000000000000000000000010000000000000000000111000000000111000111000000000111000000000000000000000000000100000000000000000111000000000111000000010000000000000000000111000000000111000001000000000000000000000000000000000011000111000000000000000111000000000111000000010000000000000000000100000000000000000001000000000000000000000000000000000000000100011000000000000000000000000000000000010000000000000000000000000000000000000001000000000000000000000000000000000000000100000000000000000000000000000000000000010000000000000000000000000000000000000001000000000000000000000000000000000000101
101000000000000000000000000000000000000010000000000000000000111000000000111000111000000000111000000000000000000000000000100000000000000000111000000000111000000010000000000000000000111000000000111000001000000000000000000000000000000001100000111000000000000000111000000000111000000010000000000000000000100000000000000000001000000000000000000000000000000000000000100000110000000000000000000000000000000010000000000000000000000000000000000000001000000000000000000000000000000000000000100000000000000000000000000000000000000010000000000000000000000000000000000000001000000000000000000000000000000000000101
101000000000000000000000000000000000000010000000000000000000000111111111000000111111111111000000000000000000000000000000100000000000000000111000000000111111111111111000111111111111000000000000111000001000000000000000000000000000000010000000111111111111111000111111111111000000000010000000000000000000100000000000000000001000000000000000000000000000000000000000100000001000000000000000000000000000000010000000000000000000000000000000000000001000000000000000000000000000000000000000100000000000000000000000000000000000000010000000000000000000000000000000000000001000000000000000000000000000000000000101
101000000000000000000000000000000000000010000000000000000000000111111111000000111111111111000000000000000000000000000000100000000000000000111000000000111111111111111000111111111111000000000000111000001000000000000000000000000000001100000000111111111111111000111111111111000000000010000000000000000000100000000000000000001000000000000000000000000000000000000000100000000110000000000000000000000000000010000000000000000000000000000000000000001000000000000000000000000000000000000000100000000000000000000000000000000000000010000000000000000000000000000000000000001000000000000000000000000000000000000101
101000000000000000000000000000000000000010000000000000000000000111111111000000111111111111000000000000000000000000000000100000000000000000111000000000111111111111111000111111111111000000000000111000001000000000000000000000000000110000000000111111111111111000111111111111000000000010000000000000000000100000000000000000001000000000000000000000000000000000000000100000000001100000000000000000000000000010000000000000000000000000000000000000001000000000000000000000000000000000000000100000000000000000000000000000000000000010000000000000000000000000000000000000001000000000000000000000000000000000000101
101000000000000000000000000000000000000010000000000000000000000000000000000000001000000000000000000000000000000000000000100000000000000000000000000000000000000010000000000000000000000000000000000000001000000000000000000000000011000000000000100000000000000000000000000000000000000010000000000000000000100000000000000000001000000000000000000000000000000000000000100000000000011000000000000000000000000010000000000000000000000000000000000000001000000000000000000000000000000000000000100000000000000000000000000000000000000010000000000000000000000000000000000000001000000000000000000000000000000000000101
101000000000000000000000000000000000000010000000000000000000000000000000000000001000000000000000000000000000000000000000100000000000000000000000000000000000000010000000000000000000000000000000000000001000000000000000000000000100000000000000100000000000000000000000000000000000000010000000000000000000100000000000000000001000000000000000000000000000000000000000100000000000000100000000000000000000000010000000000000000000000000000000000000001000000000000000000000000000000000000000100000000000000000000000000000000000000010000000000000000000000000000000000000001000000000000000000000000000000000000101
101000000000000000000000000000000000000010000000000000000000000000000000000000001000000000000000000000000000000000000000100000000000000000000000000000000000000010000000000000000000000000000000000000001000000000000000000000011000000000000000100000000000000000000000000000000000000010000000000000000000100000000000000000001000000000000000000000000000000000000000100000000000000011000000000000000000000010000000000000000000000000000000000000001000000000000000000000000000000000000000100000000000000000000000000000000000000010000000000000000000000000000000000000001000000000000000000000000000000000000101
101000000000000000000000000000000000000010000000000000000000000000000000000000001000000000000000000000000000000000000000100000000000000000000000000000000000000010000000000000000000000000000000000000001000000000000000000001100000000000000000100000000000000000000000000000000000000010000000000000000000100000000000000000001000000000000000000000000000000000000000100000000000000000110000000000000000000010000000000000000000000000000000000000001000000000000000000000000000000000000000100000000000000000000000000000000000000010000000000000000000000000000000000000001000000000000000000000000000000000000101
101000000000000000000000000000000000000010000000000000000000000000000000000000001000000000000000000000000000000000000000100000000000000000000000000000000000000010000000000000000000000000000000000000001000000000000000000110000000000000000000100000000000000000000000000000000000000010000000000000000000100000000000000000001000000000000000000000000000000000000000100000000000000000001100000000000000000010000000000000000000000000000000000000001000000000000000000000000000000000000000100000000000000000000000000000000000000010000000000000000000000000000000000000001000000000000000000000000000000000000101
101000000000000000000000000000000000000010000000000000000000000000000000000000001000000000000000000000000000000000000000100000000000000000000000000000000000000010000000000000000000000000000000000000001000000000000000001000000000000000000000100000000000000000000000000000000000000010000000000000000000100000000000000000001000000000000000000000000000000000000000100000000000000000000010000000000000000010000000000000000000000000000000000000001000000000000000000000000000000000000000100000000000000000000000000000000000000010000000000000000000000000000000000000001000000000000000000000000000000000000101
101000000000000000000000000000000000000010000000000000000000000000000000000000001000000000000000000000000000000000000000100000000000000000000000000000000000000010000000000000000000000000000000000000001000000000000000110000000000000000000000100000000000000000000000000000000000000010000000000000000000100000000000000000001000000000000000000000000000000000000000100000000000000000000001100000000000000010000000000000000000000000000000000000001000000000000000000000000000000000000000100000000000000000000000000000000000000010000000000000000000000000000000000000001000000000000000000000000000000000000101
101000000000000000000000000000000000000010000000000000000000000000000000000000001000000000000000000000000000000000000000100000000000000000000000000000000000000010000000000000000000000000000000000000001000000000000011000000000000000000000000100000000000000000000000000000000000000010000000000000000000100000000000000000001000000000000000000000000000000000000000100000000000000000000000011000000000000010000000000000000000000000000000000000001000000000000000000000000000000000000000100000000000000000000000000000000000000010000000000000000000000000000000000000001000000000000000000000000000000000000101
101000000000000000000000000000000000000010000000000000000000000000000000000000001000000000000000000000000000000000000000100000000000000000000000000000000000000010000000000000000000000000000000000000001000000000001100000000000000000000000000100000000000000000000000000000000000000010000000000000000000100000000000000000001000000000000000000000000000000000000000100000000000000000000000000110000000000010000000000000000000000000000000000000001000000000000000000000000000000000000000100000000000000000000000000000000000000010000000000000000000000000000000000000001000000000000000000000000000000000000101
101000000000000000000000000000000000000010000000000000000000000000000000000000001000000000000000000000000000000000000000100000000000000000000000000000000000000010000000000000000000000000000000000000001000000000110000000000000000000000000000100000000000000000000000000000000000000010000000000000000000100000000000000000001000000000000000000000000000000000000000100000000000000000000000000001000000000010000000000000000000000000000000000000001000000000000000000000000000000000000000100000000000000000000000000000000000000010000000000000000000000000000000000000001000000000000000000000000000000000000101
101000000000000000000000000000000000000010000000000000000000000000000000000000001000000000000000000000000000000000000000100000000000000000000000000000000000000010000000000000000000000000000000000000001000000001000000000000000000000000000000100000000000000000000000000000000000000010000000000000000000100000000000000000001000000000000000000000000000000000000000100000000000000000000000000000110000000010000000000000000000000000000000000000001000000000000000000000000000000000000000100000000000000000000000000000000000000010000000000000000000000000000000000000001000000000000000000000000000000000000101
101000000000000000000000000000000000000010000000000000000000000000000000000000001000000000000000000000000000000000000000100000000000000000000000000000000000000010000000000000000000000000000000000000001000000110000000000000000000000000000000100000000000000000000000000000000000000010000000000000000000100000000000000000001000000000000000000000000000000000000000100000000000000000000000000000001100000010000000000000000000000000000000000000001000000000000000000000000000000000000000100000000000000000000000000000000000000010000000000000000000000000000000000000001000000000000000000000000000000000000101
101000000000000000000000000000000000000010000000000000000000000000000000000000001000000000000000000000000000000000000000100000000000000000000000000000000000000010000000000000000000000000000000000000001000011000000000000000000000000000000000100000000000000000000000000000000000000010000000000000000000100000000000000000001000000000000000000000000000000000000000100000000000000000000000000000000011000010000000000000000000000000000000000000001000000000000000000000000000000000000000100000000000000000000000000000000000000010000000000000000000000000000000000000001000000000000000000000000000000000000101
101000000000000000000000000000000000000010000000000000000000000000000000000000001000000000000000000000000000000000000000100000000000000000000000000000000000000010000000000000000000000000000000000000001001100000000000000000000000000000000000100000000000000000000000000000000000000010000000000000000000100000000000000000001000000000000000000000000000000000000000100000000000000000000000000000000000110010000000000000000000000000000000000000001000000000000000000000000000000000000000100000000000000000000000000000000000000010000000000000000000000000000000000000001000000000000000000000000000000000000101
101000000000000000000000000000000000000010000000000000000000000000000000000000001000000000000000000000000000000000000000100000000000000000000000000000000000000010000000000000000000000000000000000000001010000000000000000000000000000000000000100000000000000000000000000000000000000010000000000000000000100000000000000000001000000000000000000000000000000000000000100000000000000000000000000000000000001010000000000000000000000000000000000000001000000000000000000000000000000000000000100000000000000000000000000000000000000010000000000000000000000000000000000000001000000000000000000000000000000000000101
101000000000000000000000000000000000000010000000000000000000000000000000000000001000000000000000000000000000000000000000100000000000000000000000000000000000000010000000000000000000000000000000000000001100000000000000000000000000000000000000100000000000000000000000000000000000000010000000000000000000100000000000000000001000000000000000000000000000000000000000100000000000000000000000000000000000000110000000000000000000000000000000000000001000000000000000000000000000000000000000100000000000000000000000000000000000000010000000000000000000000000000000000000001000000000000000000000000000000000000101
101000000000000000000000000000000000000010000000000000000000000000000000000000001000000000000000000000000000000000000000100000000000000000000000000000000000000010000000000000000000000000000000000000111000000000000000000000000000000000000000100000000000000000000000000000000000000010000000000000000000100000000000000000001000000000000000000000000000000000000000100000000000000000000000000000000000000011100000000000000000000000000000000000001000000000000000000000000000000000000000100000000000000000000000000000000000000010000000000000000000000000000000000000001000000000000000000000000000000000000101
101000000000000000000000000000000000000010000000000000000000000000000000000000001000000000000000000000000000000000000000100000000000000000000000000000000000000010000000000000000000000000000000000011001000000000000000000000000000000000000000100000000000000000000000000000000000000010000000000000000000100000000000000000001000000000000000000000000000000000000000100000000000000000000000000000000000000010011000000000000000000000000000000000001000000000000000000000000000000000000000100000000000000000000000000000000000000010000000000000000000000000000000000000001000000000000000000000000000000000000101
101000000000000000000000000000000000000010000000000000000000000000000000000000001000000000000000000000000000000000000000100000000000000000000000000000000000000010000000000000000000000000000000000100001000000000000000000000000000000000000000100000000000000000000000000000000000000010000000000000000000100000000000000000001000000000000000000000000000000000000000100000000000000000000000000000000000000010000100000000000000000000000000000000001000000000000000000000000000000000000000100000000000000000000000000000000000000010000000000000000000000000000000000000001000000000000000000000000000000000000101
101000000000000000000000000000000000000010000000000000000000000000000000000000001000000000000000000000000000000000000000100000000000000000000000000000000000000010000000000000000000000000000000011000001000000000000000000000000000000000000000100000000000000000000000000000000000000010000000000000000000100000000000000000001000000000000000000000000000000000000000100000000000000000000000000000000000000010000011000000000000000000000000000000001000000000000000000000000000000000000000100000000000000000000000000000000000000010000000000000000000000000000000000000001000000000000000000000000000000000000101
101000000000000000000000000000000000000010000000000000000000000000000000000000001000000000000000000000000000000000000000100000000000000000000000000000000000000010000000000000000000000000000001100000001000000000000000000000000000000000000000100000000000000000000000000000000000000010000000000000000000100000000000000000001000000000000000000000000000000000000000100000000000000000000000000000000000000010000000110000000000000000000000000000001000000000000000000000000000000000000000100000000000000000000000000000000000000010000000000000000000000000000000000000001000000000000000000000000000000000000101
101000000000000000000000000000000000000010000000000000000000000000000000000000001000000000000000000000000000000000000000100000000000000000000000000000000000000010000000000000000000000000000110000000001000000000000000000000000000000000000000100000000000000000000000000000000000000010000000000000000000100000000000000000001000000000000000000000000000000000000000100000000000000000000000000000000000000010000000001100000000000000000000000000001000000000000000000000000000000000000000100000000000000000000000000000000000000010000000000000000000000000000000000000001000000000000000000000000000000000000101
101000000000000000000000000000000000000010000000000000000000000000000000000000001000000000000000000000000000000000000000100000000000000000000000000000000000000010000000000000000000000000001000000000001000000000000000000000000000000000000000100000000000000000000000000000000000000010000000000000000000100000000000000000001000000000000000000000000000000000000000100000000000000000000000000000000000000010000000000010000000000000000000000000001000000000000000000000000000000000000000100000000000000000000000000000000000000010000000000000000000000000000000000000001000000000000000000000000000000000000101
101000000000000000000000000000000000000010000000000000000000000000000000000000001000000000000000000000000000000000000000100000000000000000000000000000000000000010000000000000000000000000110000000000001000000000000000000000000000000000000000100000000000000000000000000000000000000010000000000000000000100000000000000000001000000000000000000000000000000000000000100000000000000000000000000000000000000010000000000001100000000000000000000000001000000000000000000000000000000000000000100000000000000000000000000000000000000010000000000000000000000000000000000000001000000000000000000000000000000000000101
101000000000000000000000000000000000000010000000000000000000000000000000000000001000000000000000000000000000000000000000100000000000000000000000000000000000000010000000000000000000000011000000000000001000000000000000000000000000000000000000100000000000000000000000000000000000000010000000000000000000100000000000000000001000000000000000000000000000000000000000100000000000000000000000000000000000000010000000000000011000000000000000000000001000000000000000000000000000000000000000100000000000000000000000000000000000000010000000000000000000000000000000000000001000000000000000000000000000000000000101
101000000000000000000000000000000000000010000000000000000000000000000000000000001000000000000000000000000000000000000000100000000000000000000000000000000000000010000000000000000000001100000000000000001000000000000000000000000000000000000000100000000000000000000000000000000000000010000000000000000000100000000000000000001000000000000000000000000000000000000000100000000000000000000000000000000000000010000000000000000110000000000000000000001000000000000000000000000000000000000000100000000000000000000000000000000000000010000000000000000000000000000000000000001000000000000000000000000000000000000101
101000000000000000000000000000000000000010000000000000000000000000000000000000001000000000000000000000000000000000000000100000000000000000000000000000000000000010000000000000000000110000000000000000001000000000000000000000000000000000000000100000000000000000000000000000000000000010000000000000000000100000000000000000001000000000000000000000000000000000000000100000000000000000000000000000000000000010000000000000000001000000000000000000001000000000000000000000000000000000000000100000000000000000000000000000000000000010000000000000000000000000000000000000001000000000000000000000000000000000000101
101000000000000000000000000000000000000010000000000000000000000000000000000000001000000000000000000000000000000000000000100000000000000000000000000000000000000010000000000000000001000000000000000000001000000000000000000000000000000000000000100000000000000000000000000000000000000010000000000000000000100000000000000000001000000000000000000000000000000000000000100000000000000000000000000000000000000010000000000000000000110000000000000000001000000000000000000000000000000000000000100000000000000000000000000000000000000010000000000000000000000000000000000000001000000000000000000000000000000000000101
101000000000000000000000000000000000000010000000000000000000000000000000000000001000000000000000000000000000000000000000100000000000000000000000000000000000000010000000000000000110000000000000000000001000000000000000000000000000000000000000100000000000000000000000000000000000000010000000000000000000100000000000000000001000000000000000000000000000000000000000100000000000000000000000000000000000000010000000000000000000001100000000000000001000000000000000000000000000000000000000100000000000000000000000000000000000000010000000000000000000000000000000000000001000000000000000000000000000000000000101
111111111111111111111111111111111111111111111111111111111111111111111111111111111111111111111111111111111111111111111111111111111111111111111111111111111111111111111111111111111111111111111111111111111111111111111111111111111111111111111111111111111111111111111111111111111111111111111111111111111111111111111111111111111111111111111111111111111111111111111111111111111111111111111111111111111111111111111111111111111111111111111111111111111111111111111111111111111111111111111111111111111111111111111111111111111111111111111111111111111111111111111111111111111111111111111111111111111111111111111111
101000000000000000000000000000000000000010000000000000000000000000000000000000001000000000000000000000000000000000000000100000000000000000000000000000000000000010000000000001100000000000000000000000001000000000000000000000000000000000000000100000000000000000000000000000000000000010000000000000000000100000000000000000001000000000000000000000000000000000000000100000000000000000000000000000000000000010000000000000000000000000110000000000001000000000000000000000000000000000000000100000000000000000000000000000000000000010000000000000000000000000000000000000001000000000000000000000000000000000000101
101000000000000000000000000000000000000010000000000000000000000000000000000000001000000000000000000000000000000000000000100000000000000000000000000000000000000010000000000010000000000000000000000000001000000000000000000000000000000000000000100000000000000000000000000000000000000010000000000000000000100000000000000000001000000000000000000000000000000000000000100000000000000000000000000000000000000010000000000000000000000000001000000000001000000000000000000000000000000000000000100000000000000000000000000000000000000010000000000000000000000000000000000000001000000000000000000000000000000000000101
101000000000000000000000000000000000000010000000000000000000000000000000000000001000000000000000000000000000000000000000100000000000000000000000000000000000000010000000001100000000000000000000000000001000000000000000000000000000000000000000100000000000000000000000000000000000000010000000000000000000100000000000000000001000000000000000000000000000000000000000100000000000000000000000000000000000000010000000000000000000000000000110000000001000000000000000000000000000000000000000100000000000000000000000000000000000000010000000000000000000000000000000000000001000000000000000000000000000000000000101
101000000000000000000000000000000000000010000000000000000000000000000000000000001000000000000000000000000000000000000000100000000000000000000000000000000000000010000000110000000000000000000000000000001000000000000000000000000000000000000000100000000000000000000000000000000000000010000000000000000000100000000000000000001000000000000000000000000000000000000000100000000000000000000000000000000000000010000000000000000000000000000001100000001000000000000000000000000000000000000000100000000000000000000000000000000000000010000000000000000000000000000000000000001000000000000000000000000000000000000101
101000000000000000000000000000000000000010000000000000000000000000000000000000001000000000000000000000000000000000000000100000000000000000000000000000000000000010000011000000000000000000000000000000001000000000000000000000000000000000000000100000000000000000000000000000000000000010000000000000000000100000000000000000001000000000000000000000000000000000000000100000000000000000000000000000000000000010000000000000000000000000000000011000001000000000000000000000000000000000000000100000000000000000000000000000000000000010000000000000000000000000000000000000001000000000000000000000000000000000000101
101000000000000000000000000000000000000010000000000000000000000000000000000000001000000000000000000000000000000000000000100000000000000000000000000000000000000010000100000000000000000000000000000000001000000000000000000000000000000000000000100000000000000000000000000000000000000010000000000000000000100000000000000000001000000000000000000000000000000000000000100000000000000000000000000000000000000010000000000000000000000000000000000100001000000000000000000000000000000000000000100000000000000000000000000000000000000010000000000000000000000000000000000000001000000000000000000000000000000000000101
101000000000000000000000000000000000000010000000000000000000000000000000000000001000000000000000000000000000000000000000100000000000000000000000000000000000000010011000000000000000000000000000000000001000000000000000000000000000000000000000100000000000000000000000000000000000000010000000000000000000100000000000000000001000000000000000000000000000000000000000100000000000000000000000000000000000000010000000000000000000000000000000000011001000000000000000000000000000000000000000100000000000000000000000000000000000000010000000000000000000000000000000000000001000000000000000000000000000000000000101
101000000000000000000000000000000000000010000000000000000000000000000000000000001000000000000000000000000000000000000000100000000000000000000000000000000000000011100000000000000000000000000000000000001000000000000000000000000000000000000000100000000000000000000000000000000000000010000000000000000000100000000000000000001000000000000000000000000000000000000000100000000000000000000000000000000000000010000000000000000000000000000000000000111000000000000000000000000000000000000000100000000000000000000000000000000000000010000000000000000000000000000000000000001000000000000000000000000000000000000101
101000000000000000000000000000000000000010000000000000000000000000000000000000001000000000000000000000000000000000000000100000000000000000000000000000000000000110000000000000000000000000000000000000001000000000000000000000000000000000000000100000000000000000000000000000000000000010000000000000000000100000000000000000001000000000000000000000000000000000000000100000000000000000000000000000000000000010000000000000000000000000000000000000001100000000000000000000000000000000000000100000000000000000000000000000000000000010000000000000000000000000000000000000001000000000000000000000000000000000000101
101000000000000000000000000000000000000010000000000000000000000000000000000000001000000000000000000000000000000000000000100000000000000000000000000000000000001010000000000000000000000000000000000000001000000000000000000000000000000000000000100000000000000000000000000000000000000010000000000000000000100000000000000000001000000000000000000000000000000000000000100000000000000000000000000000000000000010000000000000000000000000000000000000001010000000000000000000000000000000000000100000000000000000000000000000000000000010000000000000000000000000000000000000001000000000000000000000000000000000000101
101000000000000000000000000000000000000010000000000000000000000000000000000000001000000000000000000000000000000000000000100000000000000000000000000000000000110010000000000000000000000000000000000000001000000000000000000000000000000000000000100000000000000000000000000000000000000010000000000000000000100000000000000000001000000000000000000000000000000000000000100000000000000000000000000000000000000010000000000000000000000000000000000000001001100000000000000000000000000000000000100000000000000000000000000000000000000010000000000000000000000000000000000000001000000000000000000000000000000000000101
101000000000000000000000000000000000000010000000000000000000000000000000000000001000000000000000000000000000000000000000100000000000000000000000000000000011000010000000000000000000000000000000000000001000000000000000000000000000000000000000100000000000000000000000000000000000000010000000000000000000100000000000000000001000000000000000000000000000000000000000100000000000000000000000000000000000000010000000000000000000000000000000000000001000011000000000000000000000000000000000100000000000000000000000000000000000000010000000000000000000000000000000000000001000000000000000000000000000000000000101
101000000000000000000000000000000000000010000000000000000000000000000000000000001000000000000000000000000000000000000000100000000000000000000000000000001100000010000000000000000000000000000000000000001000000000000000000000000000000000000000100000000000000000000000000000000000000010000000000000000000100000000000000000001000000000000000000000000000000000000000100000000000000000000000000000000000000010000000000000000000000000000000000000001000000110000000000000000000000000000000100000000000000000000000000000000000000010000000000000000000000000000000000000001000000000000000000000000000000000000101
101000000000000000000000000000000000000010000000000000000000000000000000000000001000000000000000000000000000000000000000100000000000000000000000000000110000000010000000000000000000000000000000000000001000000000000000000000000000000000000000100000000000000000000000000000000000000010000000000000000000100000000000000000001000000000000000000000000000000000000000100000000000000000000000000000000000000010000000000000000000000000000000000000001000000001000000000000000000000000000000100000000000000000000000000000000000000010000000000000000000000000000000000000001000000000000000000000000000000000000101
101000000000000000000000000000000000000010000000000000000000000000000000000000001000000000000000000000000000000000000000100000000000000000000000000001000000000010000000000000000000000000000000000000001000000000000000000000000000000000000000100000000000000000000000000000000000000010000000000000000000100000000000000000001000000000000000000000000000000000000000100000000000000000000000000000000000000010000000000000000000000000000000000000001000000000110000000000000000000000000000100000000000000000000000000000000000000010000000000000000000000000000000000000001000000000000000000000000000000000000101
101000000000000000000000000000000000000010000000000000000000000000000000000000001000000000000000000000000000000000000000100000000000000000000000000110000000000010000000000000000000000000000000000000001000000000000000000000000000000000000000100000000000000000000000000000000000000010000000000000000000100000000000000000001000000000000000000000000000000000000000100000000000000000000000000000000000000010000000000000000000000000000000000000001000000000001100000000000000000000000000100000000000000000000000000000000000000010000000000000000000000000000000000000001000000000000000000000000000000000000101
101000000000000000000000000000000000000010000000000000000000000000000000000000001000000000000000000000000000000000000000100000000000000000000000011000000000000010000000000000000000000000000000000000001000000000000000000000000000000000000000100000000000000000000000000000000000000010000000000000000000100000000000000000001000000000000000000000000000000000000000100000000000000000000000000000000000000010000000000000000000000000000000000000001000000000000011000000000000000000000000100000000000000000000000000000000000000010000000000000000000000000000000000000001000000000000000000000000000000000000101
101000000000000000000000000000000000000010000000000000000000000000000000000000001000000000000000000000000000000000000000100000000000000000000001100000000000000010000000000000000000000000000000000000001000000000000000000000000000000000000000100000000000000000000000000000000000000010000000000000000000100000000000000000001000000000000000000000000000000000000000100000000000000000000000000000000000000010000000000000000000000000000000000000001000000000000000110000000000000000000000100000000000000000000000000000000000000010000000000000000000000000000000000000001000000000000000000000000000000000000101
101000000000000000000000000000000000000010000000000000000000000000000000000000001000000000000000000000000000000000000000100000000000000000000010000000000000000010000000000000000000000000000000000000001000000000000000000000000000000000000000100000000000000000000000000000000000000010000000000000000000100000000000000000001000000000000000000000000000000000000000100000000000000000000000000000000000000010000000000000000000000000000000000000001000000000000000001000000000000000000000100000000000000000000000000000000000000010000000000000000000000000000000000000001000000000000000000000000000000000000101
101000000000000000000000000000000000000010000000000000000000000000000000000000001000000000000000000000000000000000000000100000000000000000001100000000000000000010000000000000000000000000000000000000001000000000000000000000000000000000000000100000000000000000000000000000000000000010000000000000000000100000000000000000001000000000000000000000000000000000000000100000000000000000000000000000000000000010000000000000000000000000000000000000001000000000000000000110000000000000000000100000000000000000000000000000000000000010000000000000000000000000000000000000001000000000000000000000000000000000000101
101000000000000000000000000000000000000010000000000000000000000000000000000000001000000000000000000000000000000000000000100000000000000000110000000000000000000010000000000000000000000000000000000000001000000000000000000000000000000000000000100000000000000000000000000000000000000010000000000000000000100000000000000000001000000000000000000000000000000000000000100000000000000000000000000000000000000010000000000000000000000000000000000000001000000000000000000001100000000000000000100000000000000000000000000000000000000010000000000000000000000000000000000000001000000000000000000000000000000000000101
101000000000000000000000000000000000000010000000000000000000000000000000000000001000000000000000000000000000000000000000100000000000000011000000000000000000000010000000000000000000000000000000000000001000000000000000000000000000000000000000100000000000000000000000000000000000000010000000000000000000100000000000000000001000000000000000000000000000000000000000100000000000000000000000000000000000000010000000000000000000000000000000000000001000000000000000000000011000000000000000100000000000000000000000000000000000000010000000000000000000000000000000000000001000000000000000000000000000000000000101
101000000000000000000000000000000000000010000000000000000000000000000000000000001000000000000000000000000000000000000000100000000000000100000000000000000000000010000000000000000000000000000000000000001000000000000000000000000000000000000000100000000000000000000000000000000000000010000000000000000000100000000000000000001000000000000000000000000000000000000000100000000000000000000000000000000000000010000000000000000000000000000000000000001000000000000000000000000100000000000000100000000000000000000000000000000000000010000000000000000000000000000000000000001000000000000000000000000000000000000101
101000000000000000000000000000000000000010000000000000000000000000000000000000001000000000000000000000000000000000000000100000000000011000000000000000000000000010000000000000000000000000000000000000001000000000000000000000000000000000000000100000000000000000000000000000000000000010000000000000000000100000000000000000001000000000000000000000000000000000000000100000000000000000000000000000000000000010000000000000000000000000000000000000001000000000000000000000000011000000000000100000000000000000000000000000000000000010000000000000000000000000000000000000001000000000000000000000000000000000000101
101000000000000000000000000000000000000010000000000000000000000000000000000000001000000000000000000000000000000000000000100000000001100000000000000000000000000010000000000000000000000000000000000000001000000000000000000000000000000000000000100000000000000000000000000000000000000010000000000000000000100000000000000000001000000000000000000000000000000000000000100000000000000000000000000000000000000010000000000000000000000000000000000000001000000000000000000000000000110000000000100000000000000000000000000000000000000010000000000000000000000000000000000000001000000000000000000000000000000000000101
101000000000000000000000000000000000000010000000000000000000000000000000000000001000000000000000000000000000000000000000100000000110000000000000000000000000000010000000000000000000000000000000000000001000000000000000000000000000000000000000100000000000000000000000000000000000000010000000000000000000100000000000000000001000000000000000000000000000000000000000100000000000000000000000000000000000000010000000000000000000000000000000000000001000000000000000000000000000001100000000100000000000000000000000000000000000000010000000000000000000000000000000000000001000000000000000000000000000000000000101
101000000000000000000000000000000000000010000000000000000000000000000000000000001000000000000000000000000000000000000000100000001000000000000000000000000000000010000000000000000000000000000000000000001000000000000000000000000000000000000000100000000000000000000000000000000000000010000000000000000000100000000000000000001000000000000000000000000000000000000000100000000000000000000000000000000000000010000000000000000000000000000000000000001000000000000000000000000000000010000000100000000000000000000000000000000000000010000000000000000000000000000000000000001000000000000000000000000000000000000101
101000000000000000000000000000000000000010000000000000000000000000000000000000001000000000000000000000000000000000000000100000110000000000000000000000000000000010000000000000000000000000000000000000001000000000000000000000000000000000000000100000000000000000000000000000000000000010000000000000000000100000000000000000001000000000000000000000000000000000000000100000000000000000000000000000000000000010000000000000000000000000000000000000001000000000000000000000000000000001100000100000000000000000000000000000000000000010000000000000000000000000000000000000001000000000000000000000000000000000000101
101000000000000000000000000000000000000010000000000000000000000000000000000000001000000000000000000000000000000000000000100011000000000000000000000000000000000010000000000000000000000000000000000000001000000000000000000000000000000000000000100000000000000000000000000000000000000010000000000000000000100000000000000000001000000000000000000000000000000000000000100000000000000000000000000000000000000010000000000000000000000000000000000000001000000000000000000000000000000000011000100000000000000000000000000000000000000010000000000000000000000000000000000000001000000000000000000000000000000000000101
101000000000000000000000000000000000000010000000000000000000000000000000000000001000000000000000000000000000000000000000101100000000000000000000000000000000000010000000000000000000000000000000000000001000000000000000000000000000000000000000100000000000000000000000000000000000000010000000000000000000100000000000000000001000000000000000000000000000000000000000100000000000000000000000000000000000000010000000000000000000000000000000000000001000000000000000000000000000000000000110100000000000000000000000000000000000000010000000000000000000000000000000000000001000000000000000000000000000000000000101
101000000000000000000000000000000000000010000000000000000000000000000000000000001000000000000000000000000000000000000000110000000000000000000000000000000000000010000000000000000000000000000000000000001000000000000000000000000000000000000000100000000000000000000000000000000000000010000000000000000000100000000000000000001000000000000000000000000000000000000000100000000000000000000000000000000000000010000000000000000000000000000000000000001000000000000000000000000000000000000001100000000000000000000000000000000000000010000000000000000000000000000000000000001000000000000000000000000000000000000101
101000000000000000000000000000000000000010000000000000000000000000000000000000001000000000000000000000000000000000000001100000000000000000000000000000000000000010000000000000000000000000000000000000001000000000000000000000000000000000000000100000000000000000000000000000000000000010000000000000000000100000000000000000001000000000000000000000000000000000000000100000000000000000000000000000000000000010000000000000000000000000000000000000001000000000000000000000000000000000000000110000000000000000000000000000000000000010000000000000000000000000000000000000001000000000000000000000000000000000000101
101000000000000000000000000000000000000010000000000000000000000000000000000000001000000000000000000000000000000000000110100000000000000000000000000000000000000010000000000000000000000000000000000000001000000000000000000000000000000000000000100000000000000000000000000000000000000010000000000000000000100000000000000000001000000000000000000000000000000000000000100000000000000000000000000000000000000010000000000000000000000000000000000000001000000000000000000000000000000000000000101100000000000000000000000000000000000010000000000000000000000000000000000000001000000000000000000000000000000000000101
101000000000000000000000000000000000000010000000000000000000000000000000000000001000000000000000000000000000000000011000100000000000000000000000000000000000000010000000000000000000000000000000000000001000000000000000000000000000000000000000100000000000000000000000000000000000000010000000000000000000100000000000000000001000000000000000000000000000000000000000100000000000000000000000000000000000000010000000000000000000000000000000000000001000000000000000000000000000000000000000100011000000000000000000000000000000000010000000000000000000000000000000000000001000000000000000000000000000000000000101
101000000000000000000000000000000000000010000000000000000000000000000000000000001000000000000000000000000000000001100000100000000000000000000000000000000000000010000000000000000000000000000000000000001000000000000000000000000000000000000000100000000000000000000000000000000000000010000000000000000000100000000000000000001000000000000000000000000000000000000000100000000000000000000000000000000000000010000000000000000000000000000000000000001000000000000000000000000000000000000000100000110000000000000000000000000000000010000000000000000000000000000000000000001000000000000000000000000000000000000101
101000000000000000000000000000000000000010000000000000000000000000000000000000001000000000000000000000000000000010000000100000000000000000000000000000000000000010000000000000000000000000000000000000001000000000000000000000000000000000000000100000000000000000000000000000000000000010000000000000000000100000000000000000001000000000000000000000000000000000000000100000000000000000000000000000000000000010000000000000000000000000000000000000001000000000000000000000000000000000000000100000001000000000000000000000000000000010000000000000000000000000000000000000001000000000000000000000000000000000000101
101000000000000000000000000000000000000010000000000000000000000000000000000000001000000000000000000000000000001100000000100000000000000000000000000000000000000010000000000000000000000000000000000000001000000000000000000000000000000000000000100000000000000000000000000000000000000010000000000000000000100000000000000000001000000000000000000000000000000000000000100000000000000000000000000000000000000010000000000000000000000000000000000000001000000000000000000000000000000000000000100000000110000000000000000000000000000010000000000000000000000000000000000000001000000000000000000000000000000000000101
101000000000000000000000000000000000000010000000000000000000000000000000000000001000000000000000000000000000110000000000100000000000000000000000000000000000000010000000000000000000000000000000000000001000000000000000000000000000000000000000100000000000000000000000000000000000000010000000000000000000100000000000000000001000000000000000000000000000000000000000100000000000000000000000000000000000000010000000000000000000000000000000000000001000000000000000000000000000000000000000100000000001100000000000000000000000000010000000000000000000000000000000000000001000000000000000000000000000000000000101
101000000000000000000000000000000000000010000000000000000000000000000000000000001000000000000000000000000011000000000000100000000000000000000000000000000000000010000000000000000000000000000000000000001000000000000000000000000000000000000000100000000000000000000000000000000000000010000000000000000000100000000000000000001000000000000000000000000000000000000000100000000000000000000000000000000000000010000000000000000000000000000000000000001000000000000000000000000000000000000000100000000000011000000000000000000000000010000000000000000000000000000000000000001000000000000000000000000000000000000101
111111111111111111111111111111111111111111111111111111111111111111111111111111111111111111111111111111111111111111111111111111111111111111111111111111111111111111111111111111111111111111111111111111111111111111111111111111111111111111111111111111111111111111111111111111111111111111111111111111111111111111111111111111111111111111111111111111111111111111111111111111111111111111111111111111111111111111111111111111111111111111111111111111111111111111111111111111111111111111111111111111111111111111111111111111111111111111111111111111111111111111111111111111111111111111111111111111111111111111111111
101000000000000000000000000000000000000010000000000000000000000000000000000000001000000000000000000000011000000000000000100000000000000000000000000000000000000010000000000000000000000000000000000000001000000000000000000000000000000000000000100000000000000000000000000000000000000010000000000000000000100000000000000000001000000000000000000000000000000000000000100000000000000000000000000000000000000010000000000000000000000000000000000000001000000000000000000000000000000000000000100000000000000011000000000000000000000010000000000000000000000000000000000000001000000000000000000000000000000000000101
101000000000000000000000000000000000000010000000000000000000000000000000000000001000000000000000000001100000000000000000100000000000000000000000000000000000000010000000000000000000000000000000000000001000000000000000000000000000000000000000100000000000000000000000000000000000000010000000000000000000100000000000000000001000000000000000000000000000000000000000100000000000000000000000000000000000000010000000000000000000000000000000000000001000000000000000000000000000000000000000100000000000000000110000000000000000000010000000000000000000000000000000000000001000000000000000000000000000000000000101
101000000000000000000000000000000000000010000000000000000000000000000000000000001000000000000000000110000000000000000000100000000000000000000000000000000000000010000000000000000000000000000000000000001000000000000000000000000000000000000000100000000000000000000000000000000000000010000000000000000000100000000000000000001000000000000000000000000000000000000000100000000000000000000000000000000000000010000000000000000000000000000000000000001000000000000000000000000000000000000000100000000000000000001100000000000000000010000000000000000000000000000000000000001000000000000000000000000000000000000101
101000000000000000000000000000000000000010000000000000000000000000000000000000001000000000000000001000000000000000000000100000000000000000000000000000000000000010000000000000000000000000000000000000001000000000000000000000000000000000000000100000000000000000000000000000000000000010000000000000000000100000000000000000001000000000000000000000000000000000000000100000000000000000000000000000000000000010000000000000000000000000000000000000001000000000000000000000000000000000000000100000000000000000000010000000000000000010000000000000000000000000000000000000001000000000000000000000000000000000000101
101000000000000000000000000000000000000010000000000000000000000000000000000000001000000000000000110000000000000000000000100000000000000000000000000000000000000010000000000000000000000000000000000000001000000000000000000000000000000000000000100000000000000000000000000000000000000010000000000000000000100000000000000000001000000000000000000000000000000000000000100000000000000000000000000000000000000010000000000000000000000000000000000000001000000000000000000000000000000000000000100000000000000000000001100000000000000010000000000000000000000000000000000000001000000000000000000000000000000000000101
101000000000000000000000000000000000000010000000000000000000000000000000000000001000000000000011000000000000000000000000100000000000000000000000000000000000000010000000000000000000000000000000000000001000000000000000000000000000000000000000100000000000000000000000000000000000000010000000000000000000100000000000000000001000000000000000000000000000000000000000100000000000000000000000000000000000000010000000000000000000000000000000000000001000000000000000000000000000000000000000100000000000000000000000011000000000000010000000000000000000000000000000000000001000000000000000000000000000000000000101
101000000000000000000000000000000000000010000000000000000000000000000000000000001000000000001100000000000000000000000000100000000000000000000000000000000000000010000000000000000000000000000000000000001000000000000000000000000000000000000000100000000000000000000000000000000000000010000000000000000000100000000000000000001000000000000000000000000000000000000000100000000000000000000000000000000000000010000000000000000000000000000000000000001000000000000000000000000000000000000000100000000000000000000000000110000000000010000000000000000000000000000000000000001000000000000000000000000000000000000101
101000000000000000000000000000000000000010000000000000000000000000000000000000001000000000110000000000000000000000000000100000000000000000000000000000000000000010000000000000000000000000000000000000001000000000000000000000000000000000000000100000000000000000000000000000000000000010000000000000000000100000000000000000001000000000000000000000000000000000000000100000000000000000000000000000000000000010000000000000000000000000000000000000001000000000000000000000000000000000000000100000000000000000000000000001000000000010000000000000000000000000000000000000001000000000000000000000000000000000000101
101000000000000000000000000000000000000010000000000000000000000000000000000000001000000001000000000000000000000000000000100000000000000000000000000000000000000010000000000000000000000000000000000000001000000000000000000000000000000000000000100000000000000000000000000000000000000010000000000000000000100000000000000000001000000000000000000000000000000000000000100000000000000000000000000000000000000010000000000000000000000000000000000000001000000000000000000000000000000000000000100000000000000000000000000000110000000010000000000000000000000000000000000000001000000000000000000000000000000000000101
101000000000000000000000000000000000000010000000000000000000000000000000000000001000000110000000000000000000000000000000100000000000000000000000000000000000000010000000000000000000000000000000000000001000000000000000000000000000000000000000100000000000000000000000000000000000000010000000000000000000100000000000000000001000000000000000000000000000000000000000100000000000000000000000000000000000000010000000000000000000000000000000000000001000000000000000000000000000000000000000100000000000000000000000000000001100000010000000000000000000000000000000000000001000000000000000000000000000000000000101
101000000000000000000000000000000000000010000000000000000000000000000000000000001000011000000000000000000000000000000000100000000000000000000000000000000000000010000000000000000000000000000000000000001000000000000000000000000000000000000000100000000000000000000000000000000000000010000000000000000000100000000000000000001000000000000000000000000000000000000000100000000000000000000000000000000000000010000000000000000000000000000000000000001000000000000000000000000000000000000000100000000000000000000000000000000011000010000000000000000000000000000000000000001000000000000000000000000000000000000101
101000000000000000000000000000000000000010000000000000000000000000000000000000001001100000000000000000000000000000000000100000000000000000000000000000000000000010000000000000000000000000000000000000001000000000000000000000000000000000000000100000000000000000000000000000000000000010000000000000000000100000000000000000001000000000000000000000000000000000000000100000000000000000000000000000000000000010000000000000000000000000000000000000001000000000000000000000000000000000000000100000000000000000000000000000000000110010000000000000000000000000000000000000001000000000000000000000000000000000000101
101000000000000000000000000000000000000010000000000000000000000000000000000000001010000000000000000000000000000000000000100000000000000000000000000000000000000010000000000000000000000000000000000000001000000000000000000000000000000000000000100000000000000000000000000000000000000010000000000000000000100000000000000000001000000000000000000000000000000000000000100000000000000000000000000000000000000010000000000000000000000000000000000000001000000000000000000000000000000000000000100000000000000000000000000000000000001010000000000000000000000000000000000000001000000000000000000000000000000000000101
101000000000000000000000000000000000000010000000000000000000000000000000000000001100000000000000000000000000000000000000100000000000000000000000000000000000000010000000000000000000000000000000000000001000000000000000000000000000000000000000100000000000000000000000000000000000000010000000000000000000100000000000000000001000000000000000000000000000000000000000100000000000000000000000000000000000000010000000000000000000000000000000000000001000000000000000000000000000000000000000100000000000000000000000000000000000000110000000000000000000000000000000000000001000000000000000000000000000000000000101
101000000000000000000000000000000000000010000000000000000000000000000000000000111000000000000000000000000000000000000000100000000000000000000000000000000000000010000000000000000000000000000000000000001000000000000000000000000000000000000000100000000000000000000000000000000000000010000000000000000000100000000000000000001000000000000000000000000000000000000000100000000000000000000000000000000000000010000000000000000000000000000000000000001000000000000000000000000000000000000000100000000000000000000000000000000000000011100000000000000000000000000000000000001000000000000000000000000000000000000101
101000000000000000000000000000000000000010000000000000000000000000000000000011001000000000000000000000000000000000000000100000000000000000000000000000000000000010000000000000000000000000000000000000001000000000000000000000000000000000000000100000000000000000000000000000000000000010000000000000000000100000000000000000001000000000000000000000000000000000000000100000000000000000000000000000000000000010000000000000000000000000000000000000001000000000000000000000000000000000000000100000000000000000000000000000000000000010011000000000000000000000000000000000001000000000000000000000000000000000000101
101000000000000000000000000000000000000010000000000000000000000000000000000100001000000000000000000000000000000000000000100000000000000000000000000000000000000010000000000000000000000000000000000000001000000000000000000000000000000000000000100000000000000000000000000000000000000010000000000000000000100000000000000000001000000000000000000000000000000000000000100000000000000000000000000000000000000010000000000000000000000000000000000000001000000000000000000000000000000000000000100000000000000000000000000000000000000010000100000000000000000000000000000000001000000000000000000000000000000000000101
101000000000000000000000000000000000000010000000000000000000000000000000011000001000000000000000000000000000000000000000100000000000000000000000000000000000000010000000000000000000000000000000000000001000000000000000000000000000000000000000100000000000000000000000000000000000000010000000000000000000100000000000000000001000000000000000000000000000000000000000100000000000000000000000000000000000000010000000000000000000000000000000000000001000000000000000000000000000000000000000100000000000000000000000000000000000000010000011000000000000000000000000000000001000000000000000000000000000000000000101
101000000000000000000000000000000000000010000000000000000000000000000001100000001000000000000000000000000000000000000000100000000000000000000000000000000000000010000000000000000000000000000000000000001000000000000000000000000000000000000000100000000000000000000000000000000000000010000000000000000000100000000000000000001000000000000000000000000000000000000000100000000000000000000000000000000000000010000000000000000000000000000000000000001000000000000000000000000000000000000000100000000000000000000000000000000000000010000000110000000000000000000000000000001000000000000000000000000000000000000101
101000000000000000000000000000000000000010000000000000000000000000000110000000001000000000000000000000000000000000000000100000000000000000000000000000000000000010000000000000000000000000000000000000001000000000000000000000000000000000000000100000000000000000000000000000000000000010000000000000000000100000000000000000001000000000000000000000000000000000000000100000000000000000000000000000000000000010000000000000000000000000000000000000001000000000000000000000000000000000000000100000000000000000000000000000000000000010000000001100000000000000000000000000001000000000000000000000000000000000000101
101000000000000000000000000000000000000010000000000000000000000000001000000000001000000000000000000000000000000000000000100000000000000000000000000000000000000010000000000000000000000000000000000000001000000000000000000000000000000000000000100000000000000000000000000000000000000010000000000000000000100000000000000000001000000000000000000000000000000000000000100000000000000000000000000000000000000010000000000000000000000000000000000000001000000000000000000000000000000000000000100000000000000000000000000000000000000010000000000010000000000000000000000000001000000000000000000000000000000000000101
101000000000000000000000000000000000000010000000000000000000000000110000000000001000000000000000000000000000000000000000100000000000000000000000000000000000000010000000000000000000000000000000000000001000000000000000000000000000000000000000100000000000000000000000000000000000000010000000000000000000100000000000000000001000000000000000000000000000000000000000100000000000000000000000000000000000000010000000000000000000000000000000000000001000000000000000000000000000000000000000100000000000000000000000000000000000000010000000000001100000000000000000000000001000000000000000000000000000000000000101
101000000000000000000000000000000000000010000000000000000000000011000000000000001000000000000000000000000000000000000000100000000000000000000000000000000000000010000000000000000000000000000000000000001000000000000000000000000000000000000000100000000000000000000000000000000000000010000000000000000000100000000000000000001000000000000000000000000000000000000000100000000000000000000000000000000000000010000000000000000000000000000000000000001000000000000000000000000000000000000000100000000000000000000000000000000000000010000000000000011000000000000000000000001000000000000000000000000000000000000101
101000000000000000000000000000000000000010000000000000000000001100000000000000001000000000000000000000000000000000000000100000000000000000000000000000000000000010000000000000000000000000000000000000001000000000000000000000000000000000000000100000000000000000000000000000000000000010000000000000000000100000000000000000001000000000000000000000000000000000000000100000000000000000000000000000000000000010000000000000000000000000000000000000001000000000000000000000000000000000000000100000000000000000000000000000000000000010000000000000000110000000000000000000001000000000000000000000000000000000000101
101000000000000000000000000000000000000010000000000000000000110000000000000000001000000000000000000000000000000000000000100000000000000000000000000000000000000010000000000000000000000000000000000000001000000000000000000000000000000000000000100000000000000000000000000000000000000010000000000000000000100000000000000000001000000000000000000000000000000000000000100000000000000000000000000000000000000010000000000000000000000000000000000000001000000000000000000000000000000000000000100000000000000000000000000000000000000010000000000000000001000000000000000000001000000000000000000000000000000000000101
101000000000000000000000000000000000000010000000000000000001000000000000000000001000000000000000000000000000000000000000100000000000000000000000000000000000000010000000000000000000000000000000000000001000000000000000000000000000000000000000100000000000000000000000000000000000000010000000000000000000100000000000000000001000000000000000000000000000000000000000100000000000000000000000000000000000000010000000000000000000000000000000000000001000000000000000000000000000000000000000100000000000000000000000000000000000000010000000000000000000110000000000000000001000000000000000000000000000000000000101
101000000000000000000000000000000000000010000000000000000110000000000000000000001000000000000000000000000000000000000000100000000000000000000000000000000000000010000000000000000000000000000000000000001000000000000000000000000000000000000000100000000000000000000000000000000000000010000000000000000000100000000000000000001000000000000000000000000000000000000000100000000000000000000000000000000000000010000000000000000000000000000000000000001000000000000000000000000000000000000000100000000000000000000000000000000000000010000000000000000000001100000000000000001000000000000000000000000000000000000101
101000000000000000000000000000000000000010000000000000011000000000000000000000001000000000000000000000000000000000000000100000000000000000000000000000000000000010000000000000000000000000000000000000001000000000000000000000000000000000000000100000000000000000000000000000000000000010000000000000000000100000000000000000001000000000000000000000000000000000000000100000000000000000000000000000000000000010000000000000000000000000000000000000001000000000000000000000000000000000000000100000000000000000000000000000000000000010000000000000000000000011000000000000001000000000000000000000000000000000000101
101000000000000000000000000000000000000010000000000001100000000000000000000000001000000000000000000000000000000000000000100000000000000000000000000000000000000010000000000000000000000000000000000000001000000000000000000000000000000000000000100000000000000000000000000000000000000010000000000000000000100000000000000000001000000000000000000000000000000000000000100000000000000000000000000000000000000010000000000000000000000000000000000000001000000000000000000000000000000000000000100000000000000000000000000000000000000010000000000000000000000000110000000000001000000000000000000000000000000000000101
101000000000000000000000000000000000000010000000000010000000000000000000000000001000000000000000000000000000000000000000100000000000000000000000000000000000000010000000000000000000000000000000000000001000000000000000000000000000000000000000100000000000000000000000000000000000000010000000000000000000100000000000000000001000000000000000000000000000000000000000100000000000000000000000000000000000000010000000000000000000000000000000000000001000000000000000000000000000000000000000100000000000000000000000000000000000000010000000000000000000000000001000000000001000000000000000000000000000000000000101
101000000000000000000000000000000000000010000000001100000000000000000000000000001000000000000000000000000000000000000000100000000000000000000000000000000000000010000000000000000000000000000000000000001000000000000000000000000000000000000000100000000000000000000000000000000000000010000000000000000000100000000000000000001000000000000000000000000000000000000000100000000000000000000000000000000000000010000000000000000000000000000000000000001000000000000000000000000000000000000000100000000000000000000000000000000000000010000000000000000000000000000110000000001000000000000000000000000000000000000101
101000000000000000000000000000000000000010000000110000000000000000000000000000001000000000000000000000000000000000000000100000000000000000000000000000000000000010000000000000000000000000000000000000001000000000000000000000000000000000000000100000000000000000000000000000000000000010000000000000000000100000000000000000001000000000000000000000000000000000000000100000000000000000000000000000000000000010000000000000000000000000000000000000001000000000000000000000000000000000000000100000000000000000000000000000000000000010000000000000000000000000000001100000001000000000000000000000000000000000000101
101000000000000000000000000000000000000010000011000000000000000000000000000000001000000000000000000000000000000000000000100000000000000000000000000000000000000010000000000000000000000000000000000000001000000000000000000000000000000000000000100000000000000000000000000000000000000010000000000000000000100000000000000000001000000000000000000000000000000000000000100000000000000000000000000000000000000010000000000000000000000000000000000000001000000000000000000000000000000000000000100000000000000000000000000000000000000010000000000000000000000000000000011000001000000000000000000000000000000000000101
101000000000000000000000000000000000000010000100000000000000000000000000000000001000000000000000000000000000000000000000100000000000000000000000000000000000000010000000000000000000000000000000000000001000000000000000000000000000000000000000100000000000000000000000000000000000000010000000000000000000100000000000000000001000000000000000000000000000000000000000100000000000000000000000000000000000000010000000000000000000000000000000000000001000000000000000000000000000000000000000100000000000000000000000000000000000000010000000000000000000000000000000000100001000000000000000000000000000000000000101
101000000000000000000000000000000000000010011000000000000000000000000000000000001000000000000000000000000000000000000000100000000000000000000000000000000000000010000000000000000000000000000000000000001000000000000000000000000000000000000000100000000000000000000000000000000000000010000000000000000000100000000000000000001000000000000000000000000000000000000000100000000000000000000000000000000000000010000000000000000000000000000000000000001000000000000000000000000000000000000000100000000000000000000000000000000000000010000000000000000000000000000000000011001000000000000000000000000000000000000101
101000000000000000000000000000000000000011100000000000000000000000000000000000001000000000000000000000000000000000000000100000000000000000000000000000000000000010000000000000000000000000000000000000001000000000000000000000000000000000000000100000000000000000000000000000000000000010000000000000000000100000000000000000001000000000000000000000000000000000000000100000000000000000000000000000000000000010000000000000000000000000000000000000001000000000000000000000000000000000000000100000000000000000000000000000000000000010000000000000000000000000000000000000111000000000000000000000000000000000000101
101000000000000000000000000000000000000110000000000000000000000000000000000000001000000000000000000000000000000000000000100000000000000000000000000000000000000010000000000000000000000000000000000000001000000000000000000000000000000000000000100000000000000000000000000000000000000010000000000000000000100000000000000000001000000000000000000000000000000000000000100000000000000000000000000000000000000010000000000000000000000000000000000000001000000000000000000000000000000000000000100000000000000000000000000000000000000010000000000000000000000000000000000000001100000000000000000000000000000000000101
101000000000000000000000000000000000001010000000000000000000000000000000000000001000000000000000000000000000000000000000100000000000000000000000000000000000000010000000000000000000000000000000000000001000000000000000000000000000000000000000100000000000000000000000000000000000000010000000000000000000100000000000000000001000000000000000000000000000000000000000100000000000000000000000000000000000000010000000000000000000000000000000000000001000000000000000000000000000000000000000100000000000000000000000000000000000000010000000000000000000000000000000000000001010000000000000000000000000000000000101
101000000000000000000000000000000000110010000000000000000000000000000000000000001000000000000000000000000000000000000000100000000000000000000000000000000000000010000000000000000000000000000000000000001000000000000000000000000000000000000000100000000000000000000000000000000000000010000000000000000000100000000000000000001000000000000000000000000000000000000000100000000000000000000000000000000000000010000000000000000000000000000000000000001000000000000000000000000000000000000000100000000000000000000000000000000000000010000000000000000000000000000000000000001001100000000000000000000000000000000101
111111111111111111111111111111111111111111111111111111111111111111111111111111111111111111111111111111111111111111111111111111111111111111111111111111111111111111111111111111111111111111111111111111111111111111111111111111111111111111111111111111111111111111111111111111111111111111111111111111111111111111111111111111111111111111111111111111111111111111111111111111111111111111111111111111111111111111111111111111111111111111111111111111111111111111111111111111111111111111111111111111111111111111111111111111111111111111111111111111111111111111111111111111111111111111111111111111111111111111111111
101000000000000000000000000000001100000010000000000000000000000000000000000000001000000000000000000000000000000000000000100000000000000000000000000000000000000010000000000000000000000000000000000000001000000000000000000000000000000000000000100000000000000000000000000000000000000010000000000000000000100000000000000000001000000000000000000000000000000000000000100000000000000000000000000000000000000010000000000000000000000000000000000000001000000000000000000000000000000000000000100000000000000000000000000000000000000010000000000000000000000000000000000000001000000110000000000000000000000000000101
101000000000000000000000000000110000000010000000000000000000000000000000000000001000000000000000000000000000000000000000100000000000000000000000000000000000000010000000000000000000000000000000000000001000000000000000000000000000000000000000100000000000000000000000000000000000000010000000000000000000100000000000000000001000000000000000000000000000000000000000100000000000000000000000000000000000000010000000000000000000000000000000000000001000000000000000000000000000000000000000100000000000000000000000000000000000000010000000000000000000000000000000000000001000000001000000000000000000000000000101
101000000000000000000000000001000000000010000000000000000000000000000000000000001000000000000000000000000000000000000000100000000000000000000000000000000000000010000000000000000000000000000000000000001000000000000000000000000000000000000000100000000000000000000000000000000000000010000000000000000000100000000000000000001000000000000000000000000000000000000000100000000000000000000000000000000000000010000000000000000000000000000000000000001000000000000000000000000000000000000000100000000000000000000000000000000000000010000000000000000000000000000000000000001000000000110000000000000000000000000101
101000000000000000000000000110000000000010000000000000000000000000000000000000001000000000000000000000000000000000000000100000000000000000000000000000000000000010000000000000000000000000000000000000001000000000000000000000000000000000000000100000000000000000000000000000000000000010000000000000000000100000000000000000001000000000000000000000000000000000000000100000000000000000000000000000000000000010000000000000000000000000000000000000001000000000000000000000000000000000000000100000000000000000000000000000000000000010000000000000000000000000000000000000001000000000001100000000000000000000000101
101000000000000000000000011000000000000010000000000000000000000000000000000000001000000000000000000000000000000000000000100000000000000000000000000000000000000010000000000000000000000000000000000000001000000000000000000000000000000000000000100000000000000000000000000000000000000010000000000000000000100000000000000000001000000000000000000000000000000000000000100000000000000000000000000000000000000010000000000000000000000000000000000000001000000000000000000000000000000000000000100000000000000000000000000000000000000010000000000000000000000000000000000000001000000000000011000000000000000000000101
101000000000000000000001100000000000000010000000000000000000000000000000000000001000000000000000000000000000000000000000100000000000000000000000000000000000000010000000000000000000000000000000000000001000000000000000000000000000000000000000100000000000000000000000000000000000000010000000000000000000100000000000000000001000000000000000000000000000000000000000100000000000000000000000000000000000000010000000000000000000000000000000000000001000000000000000000000000000000000000000100000000000000000000000000000000000000010000000000000000000000000000000000000001000000000000000110000000000000000000101
101000000000000000000010000000000000000010000000000000000000000000000000000000001000000000000000000000000000000000000000100000000000000000000000000000000000000010000000000000000000000000000000000000001000000000000000000000000000000000000000100000000000000000000000000000000000000010000000000000000000100000000000000000001000000000000000000000000000000000000000100000000000000000000000000000000000000010000000000000000000000000000000000000001000000000000000000000000000000000000000100000000000000000000000000000000000000010000000000000000000000000000000000000001000000000000000001000000000000000000101
101000000000000000001100000000000000000010000000000000000000000000000000000000001000000000000000000000000000000000000000100000000000000000000000000000000000000010000000000000000000000000000000000000001000000000000000000000000000000000000000100000000000000000000000000000000000000010000000000000000000100000000000000000001000000000000000000000000000000000000000100000000000000000000000000000000000000010000000000000000000000000000000000000001000000000000000000000000000000000000000100000000000000000000000000000000000000010000000000000000000000000000000000000001000000000000000000110000000000000000101
101000000000000000110000000000000000000010000000000000000000000000000000000000001000000000000000000000000000000000000000100000000000000000000000000000000000000010000000000000000000000000000000000000001000000000000000000000000000000000000000100000000000000000000000000000000000000010000000000000000000100000000000000000001000000000000000000000000000000000000000100000000000000000000000000000000000000010000000000000000000000000000000000000001000000000000000000000000000000000000000100000000000000000000000000000000000000010000000000000000000000000000000000000001000000000000000000001100000000000000101
101000000000000011000000000000000000000010000000000000000000000000000000000000001000000000000000000000000000000000000000100000000000000000000000000000000000000010000000000000000000000000000000000000001000000000000000000000000000000000000000100000000000000000000000000000000000000010000000000000000000100000000000000000001000000000000000000000000000000000000000100000000000000000000000000000000000000010000000000000000000000000000000000000001000000000000000000000000000000000000000100000000000000000000000000000000000000010000000000000000000000000000000000000001000000000000000000000011000000000000101
101000000000000100000000000000000000000010000000000000000000000000000000000000001000000000000000000000000000000000000000100000000000000000000000000000000000000010000000000000000000000000000000000000001000000000000000000000000000000000000000100000000000000000000000000000000000000010000000000000000000100000000000000000001000000000000000000000000000000000000000100000000000000000000000000000000000000010000000000000000000000000000000000000001000000000000000000000000000000000000000100000000000000000000000000000000000000010000000000000000000000000000000000000001000000000000000000000000100000000000101
101000000000011000000000000000000000000010000000000000000000000000000000000000001000000000000000000000000000000000000000100000000000000000000000000000000000000010000000000000000000000000000000000000001000000000000000000000000000000000000000100000000000000000000000000000000000000010000000000000000000100000000000000000001000000000000000000000000000000000000000100000000000000000000000000000000000000010000000000000000000000000000000000000001000000000000000000000000000000000000000100000000000000000000000000000000000000010000000000000000000000000000000000000001000000000000000000000000011000000000101
101000000001100000000000000000000000000010000000000000000000000000000000000000001000000000000000000000000000000000000000100000000000000000000000000000000000000010000000000000000000000000000000000000001000000000000000000000000000000000000000100000000000000000000000000000000000000010000000000000000000100000000000000000001000000000000000000000000000000000000000100000000000000000000000000000000000000010000000000000000000000000000000000000001000000000000000000000000000000000000000100000000000000000000000000000000000000010000000000000000000000000000000000000001000000000000000000000000000110000000101
101000000110000000000000000000000000000010000000000000000000000000000000000000001000000000000000000000000000000000000000100000000000000000000000000000000000000010000000000000000000000000000000000000001000000000000000000000000000000000000000100000000000000000000000000000000000000010000000000000000000100000000000000000001000000000000000000000000000000000000000100000000000000000000000000000000000000010000000000000000000000000000000000000001000000000000000000000000000000000000000100000000000000000000000000000000000000010000000000000000000000000000000000000001000000000000000000000000000001100000101
101000001000000000000000000000000000000010000000000000000000000000000000000000001000000000000000000000000000000000000000100000000000000000000000000000000000000010000000000000000000000000000000000000001000000000000000000000000000000000000000100000000000000000000000000000000000000010000000000000000000100000000000000000001000000000000000000000000000000000000000100000000000000000000000000000000000000010000000000000000000000000000000000000001000000000000000000000000000000000000000100000000000000000000000000000000000000010000000000000000000000000000000000000001000000000000000000000000000000010000101
101000110000000000000000000000000000000010000000000000000000000000000000000000001000000000000000000000000000000000000000100000000000000000000000000000000000000010000000000000000000000000000000000000001000000000000000000000000000000000000000100000000000000000000000000000000000000010000000000000000000100000000000000000001000000000000000000000000000000000000000100000000000000000000000000000000000000010000000000000000000000000000000000000001000000000000000000000000000000000000000100000000000000000000000000000000000000010000000000000000000000000000000000000001000000000000000000000000000000001100101
101111111111111111111111111111111111111111111111111111111111111111111111111111111111111111111111111111111111111111111111111111111111111111111111111111111111111111111111111111111111111111111111111111111111111111111111111111111111111111111111111111111111111111111111111111111111111111111111111111111111111111111111111111111111111111111111111111111111111111111111111111111111111111111111111111111111111111111111111111111111111111111111111111111111111111111111111111111111111111111111111111111111111111111111111111111111111111111111111111111111111111111111111111111111111111111111111111111111111111111101
101100000000000000000000000000000000000010000000000000000000000000000000000000001000000000000000000000000000000000000000100000000000000000000000000000000000000010000000000000000000000000000000000000001000000000000000000000000000000000000000100000000000000000000000000000000000000010000000000000000000100000000000000000001000000000000000000000000000000000000000100000000000000000000000000000000000000010000000000000000000000000000000000000001000000000000000000000000000000000000000100000000000000000000000000000000000000010000000000000000000000000000000000000001000000000000000000000000000000000000111
111111111111111111111111111111111111111111111111111111111111111111111111111111111111111111111111111111111111111111111111111111111111111111111111111111111111111111111111111111111111111111111111111111111111111111111111111111111111111111111111111111111111111111111111111111111111111111111111111111111111111111111111111111111111111111111111111111111111111111111111111111111111111111111111111111111111111111111111111111111111111111111111111111111111111111111111111111111111111111111111111111111111111111111111111111111111111111111111111111111111111111111111111111111111111111111111111111111111111111111111
